;FLAVOR:Marlin
;TIME:886
;Filament used: 0.740166m
;Layer height: 0.15
;MINX:72.809
;MINY:89.973
;MINZ:0.2
;MAXX:147.191
;MAXY:130.027
;MAXZ:2.9
;Generated with Cura_SteamEngine 4.6.2
M140 S60
M105
M190 S60
M104 S200
M105
M109 S200
M82 ;absolute extrusion mode
; -- START GCODE --
G21                     ;set units to millimetres
G90                     ;set to absolute positioning
M106 S0                 ;set fan speed to zero (turned off)
G28                     ;home all axis
M420 S1                 ;turn on mesh bed levelling if enabled in firmware
G92 E0                  ;zero the extruded length
G1 Z1 F1000             ;move up slightly
G1 X60.0 Z0 E9.0 F1000.0;intro line
G1 X100.0 E21.5 F1000.0 ;continue line
G92 E0                  ;zero the extruded length again
; -- end of START GCODE --
G92 E0
G92 E0
G1 F3000 E-5
;LAYER_COUNT:19
;LAYER:0
M107
G0 F3600 X75.838 Y92.499 Z0.2
;TYPE:SKIRT
G1 F3000 E0
G1 F1800 X76.578 Y91.902 E0.03162
G1 X77.001 Y91.601 E0.04889
G1 X77.666 Y91.176 E0.07514
G1 X78.372 Y90.821 E0.10142
G1 X79.087 Y90.538 E0.127
G1 X79.839 Y90.297 E0.15326
G1 X80.885 Y90.095 E0.1887
G1 X82.332 Y89.975 E0.23699
G1 X88.416 Y89.973 E0.43934
G1 X89.435 Y90.04 E0.47331
G1 X90.348 Y90.16 E0.50394
G1 X91.125 Y90.302 E0.53021
G1 X91.648 Y90.454 E0.54832
G1 X92.172 Y90.275 E0.56674
G1 X92.941 Y90.096 E0.593
G1 X93.725 Y89.996 E0.61929
G1 X94.32 Y89.973 E0.63909
G1 X101.899 Y89.973 E0.89117
G1 X102.688 Y90.013 E0.91745
G1 X103.468 Y90.132 E0.94369
G1 X104.233 Y90.33 E0.96997
G1 X104.973 Y90.604 E0.99622
G1 X105.106 Y90.669 E1.00114
G1 X106.156 Y90.275 E1.03844
G1 X106.925 Y90.096 E1.0647
G1 X107.709 Y89.996 E1.09099
G1 X108.304 Y89.973 E1.1108
G1 X110.242 Y89.973 E1.17525
G1 X111.031 Y90.013 E1.20153
G1 X111.811 Y90.132 E1.22777
G1 X112.576 Y90.33 E1.25405
G1 X113.316 Y90.604 E1.2803
G1 X113.911 Y90.896 E1.30234
G1 X114.691 Y90.53 E1.331
G1 X115.438 Y90.275 E1.35725
G1 X116.207 Y90.096 E1.38352
G1 X116.991 Y89.996 E1.4098
G1 X117.586 Y89.973 E1.42961
G1 X122.873 Y89.973 E1.60545
G1 X123.946 Y90.022 E1.64118
G1 X124.508 Y90.075 E1.65995
G1 X125.166 Y90.161 E1.68203
G1 X126.192 Y90.366 E1.71682
G1 X126.813 Y90.534 E1.73822
G1 X127.564 Y90.778 E1.76449
G1 X127.815 Y90.888 E1.7736
G1 X128.581 Y90.53 E1.80172
G1 X129.328 Y90.275 E1.82798
G1 X130.097 Y90.096 E1.85424
G1 X130.881 Y89.996 E1.88052
G1 X131.476 Y89.973 E1.90033
G1 X139.274 Y89.973 E2.15969
G1 X140.063 Y90.013 E2.18597
G1 X140.843 Y90.132 E2.21221
G1 X141.608 Y90.33 E2.23849
G1 X142.348 Y90.604 E2.26474
G1 X143.057 Y90.952 E2.29101
G1 X143.728 Y91.37 E2.3173
G1 X144.352 Y91.853 E2.34355
G1 X144.789 Y92.258 E2.36336
G1 X145.436 Y92.961 E2.39514
G1 X145.903 Y93.597 E2.42138
G1 X146.304 Y94.277 E2.44764
G1 X146.634 Y94.995 E2.47392
G1 X146.889 Y95.742 E2.50018
G1 X147.068 Y96.511 E2.52644
G1 X147.168 Y97.295 E2.55272
G1 X147.191 Y97.89 E2.57253
G1 X147.191 Y99.578 E2.62867
G1 X147.151 Y100.367 E2.65495
G1 X147.032 Y101.147 E2.68119
G1 X146.834 Y101.912 E2.70747
G1 X146.56 Y102.652 E2.73372
G1 X146.212 Y103.361 E2.75999
G1 X145.794 Y104.032 E2.78628
G1 X145.311 Y104.656 E2.81253
G1 X145.139 Y104.841 E2.82093
G1 X145.694 Y105.731 E2.85581
G1 X146.024 Y106.449 E2.8821
G1 X146.279 Y107.196 E2.90835
G1 X146.458 Y107.965 E2.93461
G1 X146.558 Y108.749 E2.9609
G1 X146.581 Y109.344 E2.9807
G1 X146.581 Y111.063 E3.03788
G1 X146.541 Y111.852 E3.06415
G1 X146.422 Y112.632 E3.09039
G1 X146.224 Y113.397 E3.11668
G1 X145.95 Y114.137 E3.14292
G1 X145.602 Y114.846 E3.16919
G1 X145.257 Y115.399 E3.19087
G1 X145.809 Y116.129 E3.22131
G1 X146.21 Y116.809 E3.24757
G1 X146.54 Y117.527 E3.27385
G1 X146.795 Y118.274 E3.3001
G1 X146.974 Y119.043 E3.32636
G1 X147.074 Y119.827 E3.35265
G1 X147.097 Y120.422 E3.37245
G1 X147.097 Y122.11 E3.4286
G1 X147.057 Y122.899 E3.45487
G1 X146.938 Y123.679 E3.48112
G1 X146.74 Y124.444 E3.5074
G1 X146.466 Y125.184 E3.53364
G1 X146.118 Y125.893 E3.55991
G1 X145.7 Y126.564 E3.58621
G1 X145.217 Y127.188 E3.61245
G1 X144.812 Y127.625 E3.63227
G1 X144.109 Y128.272 E3.66405
G1 X143.473 Y128.739 E3.69029
G1 X142.793 Y129.14 E3.71655
G1 X142.075 Y129.47 E3.74283
G1 X141.328 Y129.725 E3.76908
G1 X140.559 Y129.904 E3.79534
G1 X139.775 Y130.004 E3.82163
G1 X139.18 Y130.027 E3.84143
G1 X131.476 Y130.027 E4.09767
G1 X130.687 Y129.987 E4.12395
G1 X129.907 Y129.868 E4.15019
G1 X129.142 Y129.67 E4.17647
G1 X128.402 Y129.396 E4.20272
G1 X127.819 Y129.11 E4.22432
G1 X126.962 Y129.42 E4.25463
G1 X126.204 Y129.641 E4.28089
G1 X125.604 Y129.758 E4.30122
G1 X124.723 Y129.895 E4.33087
G1 X124.192 Y129.959 E4.34866
G1 X123.07 Y130.027 E4.38605
G1 X117.586 Y130.027 E4.56845
G1 X116.797 Y129.987 E4.59472
G1 X116.134 Y129.886 E4.61703
G1 X115.327 Y129.999 E4.64413
G1 X114.665 Y130.027 E4.66617
G1 X112.71 Y130.027 E4.73119
G1 X111.921 Y129.987 E4.75747
G1 X111.141 Y129.868 E4.78371
G1 X110.376 Y129.67 E4.81
G1 X109.636 Y129.396 E4.83624
G1 X109.288 Y129.225 E4.84914
G1 X108.495 Y129.566 E4.87785
G1 X107.739 Y129.795 E4.90412
G1 X106.964 Y129.947 E4.93039
G1 X105.853 Y130.027 E4.96744
G1 X103.861 Y130.027 E5.03369
G1 X103.072 Y129.987 E5.05997
G1 X102.292 Y129.868 E5.08621
G1 X101.527 Y129.67 E5.11249
G1 X100.787 Y129.396 E5.13874
G1 X100.078 Y129.048 E5.16501
G1 X99.153 Y129.47 E5.19882
G1 X98.406 Y129.725 E5.22508
G1 X97.637 Y129.904 E5.25134
G1 X96.853 Y130.004 E5.27762
G1 X96.258 Y130.027 E5.29743
G1 X94.32 Y130.027 E5.36189
G1 X93.531 Y129.987 E5.38816
G1 X92.751 Y129.868 E5.41441
G1 X91.986 Y129.67 E5.44069
G1 X91.644 Y129.544 E5.45281
G1 X91.109 Y129.712 E5.47146
G1 X90.114 Y129.903 E5.50516
G1 X88.653 Y130.025 E5.55392
G1 X82.567 Y130.027 E5.75634
G1 X81.561 Y129.982 E5.78984
G1 X80.776 Y129.896 E5.8161
G1 X80.135 Y129.766 E5.83785
G1 X79.029 Y129.45 E5.87611
G1 X77.953 Y128.97 E5.9153
G1 X76.981 Y128.399 E5.95279
G1 X76.558 Y128.091 E5.9702
G1 X75.681 Y127.355 E6.00828
G1 X75.14 Y126.78 E6.03454
G1 X74.694 Y126.203 E6.05879
G1 X74.404 Y125.789 E6.0756
G1 X73.985 Y125.12 E6.10186
G1 X73.5 Y124.08 E6.14003
G1 X73.137 Y123.01 E6.17761
G1 X72.931 Y121.955 E6.21336
G1 X72.811 Y120.504 E6.26178
G1 X72.809 Y99.513 E6.95995
G1 X72.865 Y98.577 E6.99113
G1 X72.925 Y98.08 E7.00779
G1 X73.059 Y97.302 E7.03404
G1 X73.381 Y96.235 E7.07111
G1 X73.832 Y95.166 E7.1097
G1 X74.222 Y94.479 E7.13598
G1 X74.787 Y93.676 E7.16863
G1 X75.283 Y93.061 E7.19491
G1 X75.838 Y92.499 E7.22118
G0 F3600 X76.137 Y92.768
G1 F1800 X76.81 Y92.228 E7.24988
G1 X77.233 Y91.927 E7.26715
G1 X77.882 Y91.514 E7.29273
G1 X78.91 Y91.033 E7.33048
G1 X79.961 Y90.679 E7.36737
G1 X80.934 Y90.492 E7.40032
G1 X82.333 Y90.375 E7.44702
G1 X88.417 Y90.373 E7.64937
G1 X89.383 Y90.436 E7.68157
G1 X90.296 Y90.556 E7.7122
G1 X91.053 Y90.696 E7.7378
G1 X91.649 Y90.872 E7.75847
G1 X92.379 Y90.632 E7.78403
G1 X93.13 Y90.469 E7.80959
G1 X93.895 Y90.385 E7.83519
G1 X101.899 Y90.373 E8.1014
G1 X102.667 Y90.413 E8.12698
G1 X103.427 Y90.532 E8.15257
G1 X104.17 Y90.73 E8.17814
G1 X104.889 Y91.004 E8.20373
G1 X105.1 Y91.111 E8.2116
G1 X105.632 Y90.872 E8.231
G1 X106.363 Y90.632 E8.25659
G1 X107.114 Y90.469 E8.28215
G1 X107.879 Y90.385 E8.30775
G1 X110.242 Y90.373 E8.38634
G1 X111.01 Y90.413 E8.41192
G1 X111.77 Y90.532 E8.4375
G1 X112.513 Y90.73 E8.46308
G1 X113.232 Y91.004 E8.48867
G1 X113.918 Y91.351 E8.51424
G1 X114.914 Y90.872 E8.551
G1 X115.645 Y90.632 E8.57659
G1 X116.396 Y90.469 E8.60215
G1 X117.161 Y90.385 E8.62775
G1 X122.873 Y90.373 E8.81773
G1 X123.923 Y90.421 E8.85269
G1 X124.456 Y90.471 E8.87049
G1 X125.114 Y90.557 E8.89256
G1 X126.087 Y90.752 E8.92557
G1 X126.708 Y90.92 E8.94697
G1 X127.439 Y91.159 E8.97255
G1 X127.844 Y91.337 E8.98726
G1 X128.804 Y90.872 E9.02274
G1 X129.535 Y90.632 E9.04833
G1 X130.286 Y90.469 E9.07389
G1 X131.051 Y90.385 E9.09949
G1 X139.274 Y90.373 E9.37298
G1 X140.042 Y90.413 E9.39856
G1 X140.802 Y90.532 E9.42415
G1 X141.545 Y90.73 E9.44972
G1 X142.264 Y91.004 E9.47531
G1 X142.95 Y91.351 E9.50088
G1 X143.597 Y91.767 E9.52647
G1 X144.197 Y92.248 E9.55204
G1 X144.624 Y92.657 E9.57171
G1 X145.138 Y93.229 E9.59729
G1 X145.591 Y93.851 E9.62288
G1 X145.977 Y94.516 E9.64845
G1 X146.292 Y95.218 E9.67405
G1 X146.532 Y95.949 E9.69964
G1 X146.695 Y96.7 E9.7252
G1 X146.779 Y97.465 E9.75079
G1 X146.791 Y99.578 E9.82107
G1 X146.751 Y100.346 E9.84665
G1 X146.632 Y101.106 E9.87224
G1 X146.434 Y101.849 E9.89781
G1 X146.16 Y102.568 E9.9234
G1 X145.813 Y103.254 E9.94897
G1 X145.397 Y103.901 E9.97456
G1 X144.916 Y104.501 E10.00013
G1 X144.622 Y104.813 E10.01439
G1 X144.981 Y105.305 E10.03465
G1 X145.367 Y105.97 E10.06022
G1 X145.682 Y106.672 E10.08581
G1 X145.922 Y107.403 E10.1114
G1 X146.085 Y108.154 E10.13696
G1 X146.169 Y108.919 E10.16256
G1 X146.181 Y111.063 E10.23387
G1 X146.141 Y111.831 E10.25945
G1 X146.022 Y112.591 E10.28504
G1 X145.824 Y113.334 E10.31061
G1 X145.55 Y114.053 E10.3362
G1 X145.203 Y114.739 E10.36177
G1 X144.787 Y115.386 E10.38736
G1 X144.749 Y115.433 E10.38937
G1 X145.044 Y115.761 E10.40404
G1 X145.497 Y116.383 E10.42963
G1 X145.883 Y117.048 E10.45521
G1 X146.198 Y117.75 E10.4808
G1 X146.438 Y118.481 E10.50639
G1 X146.601 Y119.232 E10.53195
G1 X146.685 Y119.997 E10.55754
G1 X146.697 Y122.11 E10.62782
G1 X146.657 Y122.878 E10.6534
G1 X146.538 Y123.638 E10.67899
G1 X146.34 Y124.381 E10.70456
G1 X146.066 Y125.1 E10.73015
G1 X145.719 Y125.786 E10.75572
G1 X145.303 Y126.433 E10.78131
G1 X144.822 Y127.033 E10.80688
G1 X144.413 Y127.46 E10.82655
G1 X143.841 Y127.974 E10.85213
G1 X143.219 Y128.427 E10.87772
G1 X142.554 Y128.813 E10.90329
G1 X141.852 Y129.128 E10.92889
G1 X141.121 Y129.368 E10.95448
G1 X140.37 Y129.531 E10.98004
G1 X139.605 Y129.615 E11.00563
G1 X131.476 Y129.627 E11.276
G1 X130.708 Y129.587 E11.30158
G1 X129.948 Y129.468 E11.32717
G1 X129.205 Y129.27 E11.35274
G1 X128.486 Y128.996 E11.37833
G1 X127.843 Y128.671 E11.4023
G1 X126.831 Y129.042 E11.43815
G1 X126.092 Y129.256 E11.46374
G1 X125.542 Y129.363 E11.48237
G1 X124.661 Y129.5 E11.51203
G1 X124.157 Y129.561 E11.52891
G1 X123.07 Y129.627 E11.56513
G1 X117.586 Y129.627 E11.74753
G1 X116.818 Y129.587 E11.77311
G1 X116.111 Y129.476 E11.79691
G1 X115.134 Y129.612 E11.82972
G1 X112.71 Y129.627 E11.91035
G1 X111.942 Y129.587 E11.93592
G1 X111.182 Y129.468 E11.96151
G1 X110.439 Y129.27 E11.98708
G1 X109.72 Y128.996 E12.01268
G1 X109.282 Y128.774 E12.02901
G1 X108.303 Y129.21 E12.06465
G1 X107.565 Y129.426 E12.09023
G1 X106.808 Y129.565 E12.11583
G1 X105.853 Y129.627 E12.14766
G1 X103.861 Y129.627 E12.21391
G1 X103.093 Y129.587 E12.23949
G1 X102.333 Y129.468 E12.26508
G1 X101.59 Y129.27 E12.29065
G1 X100.871 Y128.996 E12.31624
G1 X100.185 Y128.649 E12.34181
G1 X100.057 Y128.566 E12.34689
G1 X99.632 Y128.813 E12.36324
G1 X98.93 Y129.128 E12.38883
G1 X98.199 Y129.368 E12.41442
G1 X97.448 Y129.531 E12.43998
G1 X96.683 Y129.615 E12.46557
G1 X94.32 Y129.627 E12.54417
G1 X93.552 Y129.587 E12.56975
G1 X92.792 Y129.468 E12.59533
G1 X92.049 Y129.27 E12.62091
G1 X91.657 Y129.121 E12.63486
G1 X90.989 Y129.33 E12.65814
G1 X90.065 Y129.506 E12.68942
G1 X88.652 Y129.625 E12.73658
G1 X82.566 Y129.627 E12.939
G1 X81.584 Y129.583 E12.9717
G1 X80.819 Y129.498 E12.9973
G1 X80.232 Y129.378 E13.01723
G1 X79.145 Y129.067 E13.05483
G1 X78.144 Y128.619 E13.09131
G1 X77.189 Y128.057 E13.12816
G1 X76.524 Y127.557 E13.15583
G1 X75.944 Y127.052 E13.18141
G1 X75.419 Y126.49 E13.20699
G1 X75.022 Y125.974 E13.22865
G1 X74.732 Y125.56 E13.24546
G1 X74.324 Y124.908 E13.27104
G1 X73.874 Y123.938 E13.3066
G1 X73.518 Y122.887 E13.34351
G1 X73.328 Y121.906 E13.37675
G1 X73.211 Y120.504 E13.42354
G1 X73.209 Y99.513 E14.1217
G1 X73.262 Y98.625 E14.15129
G1 X73.322 Y98.128 E14.16794
G1 X73.454 Y97.37 E14.19353
G1 X73.755 Y96.377 E14.22804
G1 X74.198 Y95.328 E14.26592
G1 X74.581 Y94.661 E14.2915
G1 X75.111 Y93.911 E14.32204
G1 X75.594 Y93.312 E14.34764
G1 X76.137 Y92.768 E14.3732
G0 F3600 X76.436 Y93.037
G1 F1800 X77.042 Y92.554 E14.39897
G1 X77.465 Y92.253 E14.41624
G1 X78.096 Y91.852 E14.44111
G1 X79.052 Y91.407 E14.47618
G1 X80.083 Y91.06 E14.51236
G1 X80.983 Y90.889 E14.54283
G1 X82.333 Y90.775 E14.58789
G1 X88.417 Y90.773 E14.79025
G1 X89.331 Y90.833 E14.82071
G1 X90.244 Y90.953 E14.85134
G1 X90.98 Y91.09 E14.87624
G1 X91.679 Y91.299 E14.90051
G1 X92.583 Y90.992 E14.93226
G1 X93.316 Y90.845 E14.95713
G1 X94.32 Y90.773 E14.9906
G1 X101.899 Y90.773 E15.24268
G1 X102.646 Y90.813 E15.26756
G1 X103.384 Y90.932 E15.29243
G1 X104.106 Y91.13 E15.31733
G1 X104.802 Y91.403 E15.34219
G1 X105.095 Y91.556 E15.35319
G1 X105.853 Y91.216 E15.38082
G1 X106.567 Y90.992 E15.40571
G1 X107.3 Y90.845 E15.43057
G1 X108.304 Y90.773 E15.46405
G1 X110.242 Y90.773 E15.52851
G1 X110.989 Y90.813 E15.55339
G1 X111.727 Y90.932 E15.57825
G1 X112.449 Y91.13 E15.60315
G1 X113.145 Y91.403 E15.62802
G1 X113.808 Y91.75 E15.65291
G1 X113.914 Y91.82 E15.65713
G1 X114.449 Y91.515 E15.67762
G1 X115.135 Y91.216 E15.70251
G1 X115.849 Y90.992 E15.7274
G1 X116.582 Y90.845 E15.75226
G1 X117.586 Y90.773 E15.78574
G1 X122.873 Y90.773 E15.96159
G1 X123.9 Y90.821 E15.99578
G1 X124.404 Y90.868 E16.01262
G1 X125.062 Y90.954 E16.03469
G1 X125.983 Y91.138 E16.06593
G1 X126.604 Y91.306 E16.08732
G1 X127.315 Y91.54 E16.11222
G1 X127.869 Y91.784 E16.13235
G1 X128.339 Y91.515 E16.15036
G1 X129.025 Y91.216 E16.17525
G1 X129.739 Y90.992 E16.20014
G1 X130.472 Y90.845 E16.22501
G1 X131.476 Y90.773 E16.25849
G1 X139.274 Y90.773 E16.51785
G1 X140.021 Y90.813 E16.54273
G1 X140.759 Y90.932 E16.56759
G1 X141.481 Y91.13 E16.59249
G1 X142.177 Y91.403 E16.61736
G1 X142.84 Y91.75 E16.64225
G1 X143.463 Y92.165 E16.66715
G1 X144.224 Y92.823 E16.70061
G1 X144.841 Y93.497 E16.731
G1 X145.278 Y94.103 E16.75585
G1 X145.649 Y94.753 E16.78074
G1 X145.948 Y95.439 E16.80563
G1 X146.172 Y96.153 E16.83052
G1 X146.319 Y96.886 E16.85539
G1 X146.391 Y97.89 E16.88886
G1 X146.391 Y99.578 E16.94501
G1 X146.351 Y100.325 E16.96989
G1 X146.232 Y101.063 E16.99475
G1 X146.034 Y101.785 E17.01965
G1 X145.761 Y102.481 E17.04452
G1 X145.414 Y103.144 E17.06941
G1 X144.999 Y103.767 E17.0943
G1 X144.341 Y104.528 E17.12777
G1 X144.076 Y104.778 E17.13988
G1 X144.668 Y105.557 E17.17242
G1 X145.039 Y106.207 E17.19732
G1 X145.338 Y106.893 E17.22221
G1 X145.562 Y107.607 E17.2471
G1 X145.709 Y108.34 E17.27196
G1 X145.781 Y109.344 E17.30544
G1 X145.781 Y111.063 E17.36261
G1 X145.741 Y111.81 E17.38749
G1 X145.622 Y112.548 E17.41236
G1 X145.424 Y113.27 E17.43726
G1 X145.151 Y113.966 E17.46212
G1 X144.804 Y114.629 E17.48701
G1 X144.389 Y115.252 E17.51191
G1 X144.221 Y115.446 E17.52045
G1 X144.747 Y116.029 E17.54656
G1 X145.184 Y116.635 E17.57141
G1 X145.555 Y117.285 E17.59631
G1 X145.854 Y117.971 E17.6212
G1 X146.078 Y118.685 E17.64608
G1 X146.225 Y119.418 E17.67095
G1 X146.297 Y120.422 E17.70443
G1 X146.297 Y122.11 E17.76057
G1 X146.257 Y122.857 E17.78545
G1 X146.138 Y123.595 E17.81032
G1 X145.94 Y124.317 E17.83522
G1 X145.667 Y125.013 E17.86008
G1 X145.32 Y125.676 E17.88497
G1 X144.905 Y126.299 E17.90987
G1 X144.247 Y127.06 E17.94333
G1 X143.573 Y127.677 E17.97372
G1 X142.967 Y128.114 E17.99857
G1 X142.317 Y128.485 E18.02346
G1 X141.631 Y128.784 E18.04835
G1 X140.917 Y129.008 E18.07324
G1 X140.184 Y129.155 E18.09811
G1 X139.18 Y129.227 E18.13159
G1 X131.476 Y129.227 E18.38782
G1 X130.729 Y129.187 E18.4127
G1 X129.991 Y129.068 E18.43757
G1 X129.269 Y128.87 E18.46247
G1 X128.573 Y128.597 E18.48733
G1 X127.91 Y128.25 E18.51222
G1 X127.868 Y128.232 E18.51374
G1 X127.311 Y128.452 E18.53366
G1 X126.7 Y128.664 E18.55517
G1 X125.981 Y128.871 E18.58006
G1 X125.481 Y128.968 E18.597
G1 X124.6 Y129.105 E18.62665
G1 X123.669 Y129.201 E18.65778
