;FLAVOR:Marlin
;TIME:326
;Filament used: 0.242672m
;Layer height: 0.15
;MINX:90.7
;MINY:99.7
;MINZ:0.2
;MAXX:129.199
;MAXY:120.3
;MAXZ:10.85
;Generated with Cura_SteamEngine 4.6.2
M140 S60
M105
M190 S60
M104 S200
M105
M109 S200
M82 ;absolute extrusion mode
; -- START GCODE --
G21                     ;set units to millimetres
G90                     ;set to absolute positioning
M106 S0                 ;set fan speed to zero (turned off)
G28                     ;home all axis
M420 S1                 ;turn on mesh bed levelling if enabled in firmware
G92 E0                  ;zero the extruded length
G1 Z1 F1000             ;move up slightly
G1 X60.0 Z0 E9.0 F1000.0;intro line
G1 X100.0 E21.5 F1000.0 ;continue line
G92 E0                  ;zero the extruded length again
; -- end of START GCODE --
G92 E0
G92 E0
G1 F3000 E-5
;LAYER_COUNT:73
;LAYER:0
M107
G0 F3600 X93.688 Y101.455 Z0.2
;TYPE:SKIRT
G1 F3000 E0
G1 F1800 X94.324 Y100.988 E0.02624
G1 X95.004 Y100.587 E0.0525
G1 X95.722 Y100.257 E0.07878
G1 X96.469 Y100.002 E0.10504
G1 X97.238 Y99.823 E0.1313
G1 X98.022 Y99.723 E0.15758
G1 X98.617 Y99.7 E0.17739
G1 X121.282 Y99.7 E0.93123
G1 X122.071 Y99.74 E0.95751
G1 X122.851 Y99.859 E0.98375
G1 X123.616 Y100.057 E1.01003
G1 X124.356 Y100.331 E1.03628
G1 X125.065 Y100.679 E1.06254
G1 X125.736 Y101.097 E1.08884
G1 X126.36 Y101.58 E1.11508
G1 X126.797 Y101.985 E1.1349
G1 X127.444 Y102.688 E1.16668
G1 X127.911 Y103.324 E1.19292
G1 X128.312 Y104.004 E1.21918
G1 X128.642 Y104.722 E1.24546
G1 X128.897 Y105.469 E1.27171
G1 X129.076 Y106.238 E1.29797
G1 X129.176 Y107.022 E1.32426
G1 X129.199 Y107.617 E1.34407
G1 X129.199 Y112.383 E1.50258
G1 X129.159 Y113.172 E1.52886
G1 X129.04 Y113.952 E1.5551
G1 X128.842 Y114.717 E1.58139
G1 X128.568 Y115.457 E1.60763
G1 X128.22 Y116.166 E1.6339
G1 X127.802 Y116.837 E1.66019
G1 X127.319 Y117.461 E1.68644
G1 X126.914 Y117.898 E1.70626
G1 X126.211 Y118.545 E1.73803
G1 X125.575 Y119.012 E1.76428
G1 X124.895 Y119.413 E1.79053
G1 X124.177 Y119.743 E1.81682
G1 X123.43 Y119.998 E1.84307
G1 X122.661 Y120.177 E1.86933
G1 X121.877 Y120.277 E1.89562
G1 X121.282 Y120.3 E1.91542
G1 X98.617 Y120.3 E2.66926
G1 X97.828 Y120.26 E2.69554
G1 X97.048 Y120.141 E2.72178
G1 X96.283 Y119.943 E2.74806
G1 X95.543 Y119.669 E2.77431
G1 X94.834 Y119.321 E2.80058
G1 X94.163 Y118.903 E2.82687
G1 X93.539 Y118.42 E2.85312
G1 X93.102 Y118.015 E2.87293
G1 X92.455 Y117.312 E2.90471
G1 X91.988 Y116.676 E2.93095
G1 X91.587 Y115.996 E2.95721
G1 X91.257 Y115.278 E2.98349
G1 X91.002 Y114.531 E3.00975
G1 X90.823 Y113.762 E3.03601
G1 X90.723 Y112.978 E3.06229
G1 X90.7 Y112.383 E3.0821
G1 X90.7 Y107.617 E3.24062
G1 X90.74 Y106.828 E3.26689
G1 X90.859 Y106.048 E3.29314
G1 X91.057 Y105.283 E3.31942
G1 X91.331 Y104.543 E3.34566
G1 X91.679 Y103.834 E3.37193
G1 X92.097 Y103.163 E3.39823
G1 X92.58 Y102.539 E3.42447
G1 X92.985 Y102.102 E3.44429
G1 X93.688 Y101.455 E3.47607
G0 F3600 X93.956 Y101.753
G1 F1800 X94.578 Y101.3 E3.50166
G1 X95.243 Y100.914 E3.52723
G1 X95.945 Y100.599 E3.55282
G1 X96.676 Y100.359 E3.57841
G1 X97.427 Y100.196 E3.60397
G1 X98.192 Y100.112 E3.62957
G1 X121.282 Y100.1 E4.39755
G1 X122.05 Y100.14 E4.42313
G1 X122.81 Y100.259 E4.44871
G1 X123.553 Y100.457 E4.47429
G1 X124.272 Y100.731 E4.49988
G1 X124.958 Y101.078 E4.52545
G1 X125.605 Y101.494 E4.55103
G1 X126.205 Y101.975 E4.57661
G1 X126.632 Y102.384 E4.59627
G1 X127.146 Y102.956 E4.62185
G1 X127.599 Y103.578 E4.64744
G1 X127.985 Y104.243 E4.67302
G1 X128.3 Y104.945 E4.69861
G1 X128.54 Y105.676 E4.7242
G1 X128.703 Y106.427 E4.74976
G1 X128.787 Y107.192 E4.77536
G1 X128.799 Y112.383 E4.94801
G1 X128.759 Y113.151 E4.97359
G1 X128.64 Y113.911 E4.99917
G1 X128.442 Y114.654 E5.02475
G1 X128.168 Y115.373 E5.05034
G1 X127.821 Y116.059 E5.07591
G1 X127.405 Y116.706 E5.10149
G1 X126.924 Y117.306 E5.12707
G1 X126.515 Y117.733 E5.14674
G1 X125.943 Y118.247 E5.17231
G1 X125.321 Y118.7 E5.19791
G1 X124.656 Y119.086 E5.22348
G1 X123.954 Y119.401 E5.24907
G1 X123.223 Y119.641 E5.27466
G1 X122.472 Y119.804 E5.30022
G1 X121.707 Y119.888 E5.32582
G1 X98.617 Y119.9 E6.0938
G1 X97.849 Y119.86 E6.11937
G1 X97.089 Y119.741 E6.14496
G1 X96.346 Y119.543 E6.17054
G1 X95.627 Y119.269 E6.19613
G1 X94.941 Y118.922 E6.2217
G1 X94.294 Y118.506 E6.24728
G1 X93.694 Y118.025 E6.27286
G1 X93.267 Y117.616 E6.29252
G1 X92.753 Y117.044 E6.3181
G1 X92.3 Y116.422 E6.34369
G1 X91.914 Y115.757 E6.36927
G1 X91.599 Y115.055 E6.39486
G1 X91.359 Y114.324 E6.42045
G1 X91.196 Y113.573 E6.44601
G1 X91.112 Y112.808 E6.47161
G1 X91.1 Y107.617 E6.64426
G1 X91.14 Y106.849 E6.66984
G1 X91.259 Y106.089 E6.69542
G1 X91.457 Y105.346 E6.721
G1 X91.731 Y104.627 E6.74659
G1 X92.078 Y103.941 E6.77216
G1 X92.494 Y103.294 E6.79774
G1 X92.975 Y102.694 E6.82332
G1 X93.384 Y102.267 E6.84299
G1 X93.956 Y101.753 E6.86856
G0 F3600 X94.224 Y102.05
G1 F1800 X94.83 Y101.613 E6.89341
G1 X95.48 Y101.242 E6.91831
G1 X96.166 Y100.943 E6.9432
G1 X96.88 Y100.719 E6.96808
G1 X97.613 Y100.572 E6.99295
G1 X98.617 Y100.5 E7.02643
G1 X121.282 Y100.5 E7.78027
G1 X122.029 Y100.54 E7.80515
G1 X122.767 Y100.659 E7.83001
G1 X123.489 Y100.857 E7.85491
G1 X124.185 Y101.13 E7.87978
G1 X124.848 Y101.477 E7.90467
G1 X125.471 Y101.892 E7.92957
G1 X126.232 Y102.55 E7.96303
G1 X126.849 Y103.224 E7.99342
G1 X127.286 Y103.83 E8.01827
G1 X127.657 Y104.48 E8.04316
G1 X127.956 Y105.166 E8.06805
G1 X128.18 Y105.88 E8.09294
G1 X128.327 Y106.613 E8.1178
G1 X128.399 Y107.617 E8.15128
G1 X128.399 Y112.383 E8.3098
G1 X128.359 Y113.13 E8.33468
G1 X128.24 Y113.868 E8.35955
G1 X128.042 Y114.59 E8.38445
G1 X127.769 Y115.286 E8.40931
G1 X127.422 Y115.949 E8.4342
G1 X127.007 Y116.572 E8.4591
G1 X126.349 Y117.333 E8.49256
G1 X125.675 Y117.95 E8.52295
G1 X125.069 Y118.387 E8.5478
G1 X124.419 Y118.758 E8.57269
G1 X123.733 Y119.057 E8.59758
G1 X123.019 Y119.281 E8.62247
G1 X122.286 Y119.428 E8.64734
G1 X121.282 Y119.5 E8.68082
G1 X98.617 Y119.5 E9.43466
G1 X97.87 Y119.46 E9.45954
G1 X97.132 Y119.341 E9.4844
G1 X96.41 Y119.143 E9.5093
G1 X95.714 Y118.87 E9.53417
G1 X95.051 Y118.523 E9.55906
G1 X94.428 Y118.108 E9.58395
G1 X93.667 Y117.45 E9.61741
G1 X93.05 Y116.776 E9.64781
G1 X92.613 Y116.17 E9.67266
G1 X92.242 Y115.52 E9.69755
G1 X91.943 Y114.834 E9.72244
G1 X91.719 Y114.12 E9.74733
G1 X91.572 Y113.387 E9.77219
G1 X91.5 Y112.383 E9.80567
G1 X91.5 Y107.617 E9.96419
G1 X91.54 Y106.87 E9.98907
G1 X91.659 Y106.132 E10.01393
G1 X91.857 Y105.41 E10.03883
G1 X92.13 Y104.714 E10.0637
G1 X92.477 Y104.051 E10.08859
G1 X92.892 Y103.428 E10.11349
G1 X93.55 Y102.667 E10.14695
G1 X94.224 Y102.05 E10.17734
G0 F3600 X94.491 Y102.349
G1 F1800 X95.082 Y101.926 E10.20151
G1 X95.716 Y101.572 E10.22566
G1 X96.385 Y101.289 E10.24982
G1 X97.081 Y101.081 E10.27398
G1 X97.796 Y100.951 E10.29815
G1 X98.617 Y100.9 E10.32551
G1 X121.282 Y100.9 E11.07935
G1 X122.007 Y100.94 E11.10351
G1 X122.724 Y101.059 E11.12768
G1 X123.423 Y101.257 E11.15184
G1 X124.096 Y101.53 E11.176
G1 X124.735 Y101.875 E11.20015
G1 X125.332 Y102.289 E11.22431
G1 X125.949 Y102.833 E11.25167
G1 X126.55 Y103.491 E11.28131
G1 X126.973 Y104.082 E11.30549
G1 X127.327 Y104.716 E11.32964
G1 X127.61 Y105.385 E11.3538
G1 X127.818 Y106.081 E11.37796
G1 X127.948 Y106.796 E11.40213
G1 X127.999 Y107.617 E11.42949
G1 X127.999 Y112.383 E11.58801
G1 X127.959 Y113.108 E11.61216
G1 X127.84 Y113.825 E11.63633
G1 X127.642 Y114.524 E11.66049
G1 X127.369 Y115.197 E11.68465
G1 X127.024 Y115.836 E11.7088
G1 X126.61 Y116.433 E11.73297
G1 X126.066 Y117.05 E11.76033
G1 X125.408 Y117.651 E11.78997
G1 X124.817 Y118.074 E11.81414
G1 X124.183 Y118.428 E11.83829
G1 X123.514 Y118.711 E11.86245
G1 X122.818 Y118.919 E11.88661
G1 X122.103 Y119.049 E11.91078
G1 X121.282 Y119.1 E11.93814
G1 X98.617 Y119.1 E12.69198
G1 X97.892 Y119.06 E12.71613
G1 X97.175 Y118.941 E12.74031
G1 X96.476 Y118.743 E12.76447
G1 X95.803 Y118.47 E12.78862
G1 X95.164 Y118.125 E12.81278
G1 X94.567 Y117.711 E12.83694
G1 X93.95 Y117.167 E12.8643
G1 X93.349 Y116.509 E12.89394
G1 X92.926 Y115.918 E12.91811
G1 X92.572 Y115.284 E12.94226
G1 X92.289 Y114.615 E12.96642
G1 X92.081 Y113.919 E12.99058
G1 X91.951 Y113.204 E13.01476
G1 X91.9 Y112.383 E13.04211
G1 X91.9 Y107.617 E13.20063
G1 X91.94 Y106.892 E13.22478
G1 X92.059 Y106.175 E13.24896
G1 X92.257 Y105.476 E13.27312
G1 X92.53 Y104.803 E13.29728
G1 X92.875 Y104.164 E13.32143
G1 X93.289 Y103.567 E13.34559
G1 X93.833 Y102.95 E13.37295
G1 X94.491 Y102.349 E13.40259
G0 F3600 X94.758 Y102.647
G1 F1800 X95.333 Y102.241 E13.426
G1 X95.951 Y101.903 E13.44943
G1 X96.602 Y101.636 E13.47283
G1 X97.28 Y101.446 E13.49625
G1 X97.975 Y101.333 E13.51967
G1 X98.617 Y101.3 E13.54105
G1 X121.282 Y101.3 E14.29489
G1 X121.985 Y101.34 E14.31831
G1 X122.679 Y101.459 E14.34173
G1 X123.354 Y101.657 E14.36513
G1 X124.003 Y101.929 E14.38853
G1 X124.617 Y102.274 E14.41196
G1 X125.188 Y102.685 E14.43536
G1 X125.666 Y103.116 E14.45677
G1 X126.252 Y103.758 E14.48568
G1 X126.658 Y104.333 E14.50909
G1 X126.996 Y104.951 E14.53252
G1 X127.263 Y105.602 E14.55592
G1 X127.453 Y106.28 E14.57934
G1 X127.566 Y106.975 E14.60276
G1 X127.599 Y107.617 E14.62414
G1 X127.599 Y112.383 E14.78266
G1 X127.559 Y113.086 E14.80608
G1 X127.44 Y113.78 E14.8295
G1 X127.242 Y114.455 E14.85289
G1 X126.97 Y115.104 E14.8763
G1 X126.625 Y115.718 E14.89972
G1 X126.214 Y116.289 E14.92312
G1 X125.783 Y116.767 E14.94453
G1 X125.141 Y117.353 E14.97344
G1 X124.566 Y117.759 E14.99685
G1 X123.948 Y118.097 E15.02028
G1 X123.297 Y118.364 E15.04368
G1 X122.619 Y118.554 E15.0671
G1 X121.924 Y118.667 E15.09052
G1 X121.282 Y118.7 E15.1119
G1 X98.617 Y118.7 E15.86574
G1 X97.914 Y118.66 E15.88916
G1 X97.22 Y118.541 E15.91258
G1 X96.545 Y118.343 E15.93598
G1 X95.896 Y118.071 E15.95938
G1 X95.282 Y117.726 E15.98281
G1 X94.711 Y117.315 E16.00621
G1 X94.233 Y116.884 E16.02761
G1 X93.647 Y116.242 E16.05652
G1 X93.241 Y115.667 E16.07994
G1 X92.903 Y115.049 E16.10336
G1 X92.636 Y114.398 E16.12677
G1 X92.446 Y113.72 E16.15019
G1 X92.333 Y113.025 E16.17361
G1 X92.3 Y112.383 E16.19499
G1 X92.3 Y107.617 E16.3535
G1 X92.34 Y106.914 E16.37692
G1 X92.459 Y106.22 E16.40034
G1 X92.657 Y105.545 E16.42374
G1 X92.929 Y104.896 E16.44714
G1 X93.274 Y104.282 E16.47057
G1 X93.685 Y103.711 E16.49397
G1 X94.116 Y103.233 E16.51538
G1 X94.758 Y102.647 E16.54429
G0 F3600 X95.025 Y102.946
G1 F1800 X95.583 Y102.557 E16.56691
G1 X96.183 Y102.235 E16.58956
G1 X96.817 Y101.986 E16.61221
G1 X97.476 Y101.813 E16.63487
G1 X98.15 Y101.719 E16.65751
G1 X121.282 Y101.7 E17.42688
G1 X121.962 Y101.74 E17.44954
G1 X122.632 Y101.859 E17.47217
G1 X123.284 Y102.056 E17.49483
G1 X123.908 Y102.328 E17.51747
G1 X124.496 Y102.672 E17.54012
G1 X125.04 Y103.082 E17.56278
G1 X125.5 Y103.516 E17.58382
G1 X125.953 Y104.025 E17.60648
G1 X126.342 Y104.583 E17.6291
G1 X126.664 Y105.183 E17.65175
G1 X126.913 Y105.817 E17.67441
G1 X127.086 Y106.476 E17.69707
G1 X127.18 Y107.15 E17.7197
G1 X127.199 Y112.383 E17.89375
G1 X127.159 Y113.063 E17.91641
G1 X127.04 Y113.733 E17.93904
G1 X126.843 Y114.385 E17.9617
G1 X126.571 Y115.009 E17.98434
G1 X126.227 Y115.597 E18.00699
G1 X125.817 Y116.141 E18.02965
G1 X125.383 Y116.601 E18.05068
G1 X124.874 Y117.054 E18.07335
G1 X124.316 Y117.443 E18.09597
G1 X123.716 Y117.765 E18.11862
G1 X123.082 Y118.014 E18.14127
G1 X122.423 Y118.187 E18.16394
G1 X121.749 Y118.281 E18.18657
G1 X98.617 Y118.3 E18.95594
G1 X97.937 Y118.26 E18.9786
G1 X97.267 Y118.141 E19.00123
G1 X96.615 Y117.944 E19.02389
G1 X95.991 Y117.672 E19.04653
G1 X95.403 Y117.328 E19.06919
G1 X94.859 Y116.918 E19.09184
G1 X94.399 Y116.484 E19.11288
G1 X93.946 Y115.975 E19.13554
G1 X93.557 Y115.417 E19.15816
G1 X93.235 Y114.817 E19.18081
G1 X92.986 Y114.183 E19.20347
G1 X92.813 Y113.524 E19.22613
G1 X92.719 Y112.85 E19.24876
G1 X92.7 Y107.617 E19.42281
G1 X92.74 Y106.937 E19.44547
G1 X92.859 Y106.267 E19.4681
G1 X93.056 Y105.615 E19.49076
G1 X93.328 Y104.991 E19.5134
G1 X93.672 Y104.403 E19.53605
G1 X94.082 Y103.859 E19.55871
G1 X94.516 Y103.399 E19.57975
G1 X95.025 Y102.946 E19.60241
G0 F3600 X95.291 Y103.246
G1 F1800 X95.832 Y102.874 E19.62425
G1 X96.414 Y102.57 E19.64609
G1 X97.029 Y102.339 E19.66794
G1 X97.668 Y102.184 E19.68981
G1 X98.617 Y102.1 E19.72149
G1 X121.282 Y102.1 E20.47533
G1 X121.938 Y102.14 E20.49719
G1 X122.584 Y102.259 E20.51904
G1 X123.211 Y102.456 E20.5409
G1 X123.809 Y102.728 E20.56275
G1 X124.37 Y103.07 E20.5846
G1 X125.1 Y103.682 E20.61629
G1 X125.653 Y104.291 E20.64365
G1 X126.025 Y104.832 E20.66548
G1 X126.329 Y105.414 E20.68732
G1 X126.56 Y106.029 E20.70917
G1 X126.715 Y106.668 E20.73104
G1 X126.799 Y107.617 E20.76273
G1 X126.799 Y112.383 E20.92125
G1 X126.759 Y113.039 E20.94311
G1 X126.64 Y113.685 E20.96495
G1 X126.443 Y114.312 E20.98681
G1 X126.171 Y114.91 E21.00866
G1 X125.829 Y115.471 E21.03052
G1 X125.217 Y116.201 E21.0622
G1 X124.608 Y116.754 E21.08956
G1 X124.067 Y117.126 E21.1114
G1 X123.485 Y117.43 E21.13324
G1 X122.87 Y117.661 E21.15509
G1 X122.231 Y117.816 E21.17696
G1 X121.282 Y117.9 E21.20864
G1 X98.617 Y117.9 E21.96248
G1 X97.961 Y117.86 E21.98434
G1 X97.315 Y117.741 E22.00619
G1 X96.688 Y117.544 E22.02805
G1 X96.09 Y117.272 E22.0499
G1 X95.529 Y116.93 E22.07175
G1 X94.799 Y116.318 E22.10344
G1 X94.246 Y115.709 E22.1308
G1 X93.874 Y115.168 E22.15263
G1 X93.57 Y114.586 E22.17447
G1 X93.339 Y113.971 E22.19632
G1 X93.184 Y113.332 E22.21819
G1 X93.1 Y112.383 E22.24988
G1 X93.1 Y107.617 E22.4084
G1 X93.14 Y106.961 E22.43026
G1 X93.259 Y106.315 E22.4521
G1 X93.456 Y105.688 E22.47396
G1 X93.728 Y105.09 E22.49581
G1 X94.07 Y104.529 E22.51767
G1 X94.682 Y103.799 E22.54935
G1 X95.291 Y103.246 E22.57671
G0 F3600 X95.556 Y103.547
G1 F1800 X96.079 Y103.192 E22.59773
G1 X96.643 Y102.906 E22.61877
G1 X97.238 Y102.694 E22.63978
G1 X97.856 Y102.558 E22.66082
G1 X98.617 Y102.5 E22.68621
G1 X121.282 Y102.5 E23.44005
G1 X121.913 Y102.54 E23.46108
G1 X122.534 Y102.659 E23.48211
G1 X123.134 Y102.856 E23.50311
G1 X123.706 Y103.127 E23.52416
G1 X124.238 Y103.467 E23.54516
G1 X124.818 Y103.964 E23.57057
G1 X125.352 Y104.556 E23.59708
G1 X125.707 Y105.079 E23.61811
G1 X125.993 Y105.643 E23.63914
G1 X126.205 Y106.238 E23.66015
G1 X126.341 Y106.856 E23.6812
G1 X126.399 Y107.617 E23.70658
G1 X126.399 Y112.383 E23.8651
G1 X126.359 Y113.014 E23.88613
G1 X126.24 Y113.635 E23.90716
G1 X126.043 Y114.235 E23.92816
G1 X125.772 Y114.807 E23.94921
G1 X125.432 Y115.339 E23.97021
G1 X124.935 Y115.919 E23.99562
G1 X124.343 Y116.453 E24.02213
G1 X123.82 Y116.808 E24.04316
G1 X123.256 Y117.094 E24.06419
G1 X122.661 Y117.306 E24.0852
G1 X122.043 Y117.442 E24.10625
G1 X121.282 Y117.5 E24.13163
G1 X98.617 Y117.5 E24.88547
G1 X97.986 Y117.46 E24.9065
G1 X97.365 Y117.341 E24.92753
G1 X96.765 Y117.144 E24.94854
G1 X96.193 Y116.873 E24.96959
G1 X95.661 Y116.533 E24.99059
G1 X95.081 Y116.036 E25.01599
G1 X94.547 Y115.444 E25.04251
G1 X94.192 Y114.921 E25.06353
G1 X93.906 Y114.357 E25.08456
G1 X93.694 Y113.762 E25.10557
G1 X93.558 Y113.144 E25.12662
G1 X93.5 Y112.383 E25.152
G1 X93.5 Y107.617 E25.31052
G1 X93.54 Y106.986 E25.33155
G1 X93.659 Y106.365 E25.35258
G1 X93.856 Y105.765 E25.37359
G1 X94.127 Y105.193 E25.39464
G1 X94.467 Y104.661 E25.41564
G1 X94.964 Y104.081 E25.44104
G1 X95.556 Y103.547 E25.46756
G0 F3600 X95.82 Y103.848
G1 F1800 X96.325 Y103.512 E25.48773
G1 X96.869 Y103.245 E25.50789
G1 X97.444 Y103.052 E25.52806
G1 X98.039 Y102.936 E25.54822
G1 X98.617 Y102.9 E25.56749
G1 X121.282 Y102.9 E26.32133
G1 X121.887 Y102.94 E26.34149
G1 X122.481 Y103.059 E26.36164
G1 X123.055 Y103.255 E26.38182
G1 X123.598 Y103.526 E26.402
G1 X124.101 Y103.865 E26.42217
