;FLAVOR:Marlin
;TIME:2019
;Filament used: 1.65893m
;Layer height: 0.15
;MINX:98.7
;MINY:92.2
;MINZ:0.2
;MAXX:121.3
;MAXY:127.8
;MAXZ:69.95
;Generated with Cura_SteamEngine 4.6.2
M140 S60
M105
M190 S60
M104 S200
M105
M109 S200
M82 ;absolute extrusion mode
; -- START GCODE --
G21                     ;set units to millimetres
G90                     ;set to absolute positioning
M106 S0                 ;set fan speed to zero (turned off)
G28                     ;home all axis
M420 S1                 ;turn on mesh bed levelling if enabled in firmware
G92 E0                  ;zero the extruded length
G1 Z1 F1000             ;move up slightly
G1 X60.0 Z0 E9.0 F1000.0;intro line
G1 X100.0 E21.5 F1000.0 ;continue line
G92 E0                  ;zero the extruded length again
; -- end of START GCODE --
G92 E0
G92 E0
G1 F3000 E-5
;LAYER_COUNT:466
;LAYER:0
M107
G0 F3600 X101.206 Y94.854 Z0.2
;TYPE:SKIRT
G1 F3000 E0
G1 F1800 X101.783 Y94.315 E0.02626
G1 X102.344 Y93.88 E0.04987
G1 X102.999 Y93.44 E0.07612
G1 X103.696 Y93.068 E0.10239
G1 X104.38 Y92.781 E0.12707
G1 X105.128 Y92.527 E0.15334
G1 X105.897 Y92.35 E0.17959
G1 X106.546 Y92.259 E0.20138
G1 X107.506 Y92.2 E0.23337
G1 X112.486 Y92.2 E0.39901
G1 X113.593 Y92.279 E0.43592
G1 X114.661 Y92.472 E0.47202
G1 X115.417 Y92.701 E0.49829
G1 X115.918 Y92.902 E0.51625
G1 X116.856 Y93.358 E0.55093
G1 X117.523 Y93.781 E0.5772
G1 X118.048 Y94.183 E0.5992
G1 X118.643 Y94.703 E0.62548
G1 X119.182 Y95.28 E0.65174
G1 X119.631 Y95.859 E0.67611
G1 X120.07 Y96.516 E0.70239
G1 X120.44 Y97.213 E0.72864
G1 X120.72 Y97.884 E0.75282
G1 X120.974 Y98.632 E0.77909
G1 X121.15 Y99.402 E0.80537
G1 X121.248 Y100.133 E0.8299
G1 X121.3 Y101.031 E0.85981
G1 X121.3 Y118.832 E1.45188
G1 X121.266 Y119.56 E1.47612
G1 X121.111 Y120.79 E1.51735
G1 X120.919 Y121.556 E1.54362
G1 X120.6 Y122.416 E1.57412
G1 X120.145 Y123.352 E1.60874
G1 X119.722 Y124.019 E1.63501
G1 X119.314 Y124.552 E1.65733
G1 X118.794 Y125.146 E1.68359
G1 X118.217 Y125.685 E1.70985
G1 X117.656 Y126.12 E1.73346
G1 X117.001 Y126.56 E1.75971
G1 X116.304 Y126.932 E1.78599
G1 X115.62 Y127.219 E1.81066
G1 X114.872 Y127.473 E1.83693
G1 X114.103 Y127.65 E1.86318
G1 X113.454 Y127.741 E1.88497
G1 X112.494 Y127.8 E1.91696
G1 X107.514 Y127.8 E2.0826
G1 X106.407 Y127.721 E2.11951
G1 X105.339 Y127.528 E2.15561
G1 X104.583 Y127.299 E2.18188
G1 X104.082 Y127.098 E2.19984
G1 X103.144 Y126.642 E2.23453
G1 X102.477 Y126.219 E2.2608
G1 X101.952 Y125.817 E2.28279
G1 X101.357 Y125.297 E2.30907
G1 X100.818 Y124.72 E2.33533
G1 X100.369 Y124.141 E2.3597
G1 X99.93 Y123.484 E2.38598
G1 X99.56 Y122.787 E2.41223
G1 X99.28 Y122.116 E2.43641
G1 X99.026 Y121.368 E2.46269
G1 X98.85 Y120.598 E2.48896
G1 X98.752 Y119.867 E2.51349
G1 X98.7 Y118.969 E2.5434
G1 X98.7 Y101.168 E3.13547
G1 X98.734 Y100.44 E3.15971
G1 X98.889 Y99.21 E3.20094
G1 X99.081 Y98.444 E3.22721
G1 X99.4 Y97.584 E3.25772
G1 X99.855 Y96.648 E3.29233
G1 X100.278 Y95.981 E3.3186
G1 X100.686 Y95.448 E3.34092
G1 X101.206 Y94.854 E3.36718
G0 F3600 X101.507 Y95.118
G1 F1800 X102.072 Y94.595 E3.39279
G1 X102.583 Y94.2 E3.41427
G1 X103.222 Y93.772 E3.43985
G1 X103.902 Y93.413 E3.46543
G1 X104.527 Y93.152 E3.48795
G1 X105.256 Y92.906 E3.51354
G1 X106.345 Y92.687 E3.55049
G1 X107.506 Y92.6 E3.58921
G1 X112.486 Y92.6 E3.75485
G1 X113.536 Y92.675 E3.78986
G1 X114.584 Y92.865 E3.82528
G1 X115.319 Y93.092 E3.85087
G1 X115.989 Y93.37 E3.875
G1 X116.676 Y93.716 E3.90058
G1 X117.593 Y94.333 E3.93734
G1 X118.379 Y95.004 E3.97171
G1 X118.902 Y95.568 E3.9973
G1 X119.31 Y96.098 E4.01954
G1 X119.737 Y96.738 E4.04513
G1 X120.094 Y97.419 E4.07071
G1 X120.349 Y98.031 E4.09276
G1 X120.594 Y98.76 E4.11834
G1 X120.763 Y99.511 E4.14394
G1 X120.851 Y100.179 E4.16635
G1 X120.9 Y101.031 E4.19473
G1 X120.9 Y118.832 E4.7868
G1 X120.868 Y119.523 E4.80981
G1 X120.714 Y120.732 E4.85034
G1 X120.524 Y121.477 E4.87591
G1 X120.234 Y122.255 E4.90353
G1 X119.787 Y123.173 E4.93749
G1 X119.165 Y124.095 E4.97448
G1 X118.493 Y124.882 E5.0089
G1 X117.928 Y125.405 E5.03451
G1 X117.417 Y125.8 E5.05599
G1 X116.778 Y126.228 E5.08157
G1 X116.098 Y126.587 E5.10715
G1 X115.473 Y126.848 E5.12967
G1 X114.744 Y127.094 E5.15526
G1 X113.655 Y127.313 E5.19221
G1 X112.494 Y127.4 E5.23093
G1 X107.514 Y127.4 E5.39657
G1 X106.464 Y127.325 E5.43158
G1 X105.416 Y127.135 E5.467
G1 X104.681 Y126.908 E5.49259
G1 X104.011 Y126.63 E5.51672
G1 X103.324 Y126.284 E5.5423
G1 X102.407 Y125.667 E5.57906
G1 X101.621 Y124.996 E5.61343
G1 X101.098 Y124.432 E5.63902
G1 X100.69 Y123.902 E5.66126
G1 X100.263 Y123.262 E5.68685
G1 X99.906 Y122.581 E5.71243
G1 X99.651 Y121.969 E5.73448
G1 X99.406 Y121.24 E5.76006
G1 X99.237 Y120.489 E5.78566
G1 X99.149 Y119.821 E5.80807
G1 X99.1 Y118.969 E5.83645
G1 X99.1 Y101.168 E6.42852
G1 X99.132 Y100.477 E6.45152
G1 X99.286 Y99.268 E6.49206
G1 X99.476 Y98.523 E6.51763
G1 X99.766 Y97.745 E6.54525
G1 X100.213 Y96.827 E6.57921
G1 X100.835 Y95.905 E6.6162
G1 X101.507 Y95.118 E6.65062
G0 F3600 X101.808 Y95.382
G1 F1800 X102.617 Y94.674 E6.68638
G1 X103.445 Y94.105 E6.71979
G1 X104.433 Y93.62 E6.7564
G1 X105.384 Y93.286 E6.78992
G1 X106.395 Y93.084 E6.82421
G1 X107.506 Y93 E6.86127
G1 X112.486 Y93 E7.02691
G1 X113.479 Y93.071 E7.06002
G1 X114.506 Y93.258 E7.09474
G1 X115.22 Y93.481 E7.11962
G1 X115.828 Y93.736 E7.14155
G1 X116.496 Y94.073 E7.16643
G1 X117.345 Y94.647 E7.20052
G1 X118.115 Y95.305 E7.2342
G1 X118.835 Y96.13 E7.27062
G1 X119.403 Y96.96 E7.30408
G1 X119.882 Y97.939 E7.34033
G1 X120.214 Y98.888 E7.37377
G1 X120.421 Y99.949 E7.40972
G1 X120.5 Y101.031 E7.4458
G1 X120.5 Y118.832 E8.03787
G1 X120.469 Y119.485 E8.05961
G1 X120.318 Y120.673 E8.09944
G1 X120.13 Y121.397 E8.12432
G1 X119.867 Y122.095 E8.14913
G1 X119.429 Y122.992 E8.18233
G1 X118.851 Y123.848 E8.21668
G1 X118.192 Y124.618 E8.25039
G1 X117.383 Y125.326 E8.28615
G1 X116.555 Y125.895 E8.31956
G1 X115.567 Y126.38 E8.35617
G1 X114.616 Y126.714 E8.3897
G1 X113.605 Y126.916 E8.42399
G1 X112.494 Y127 E8.46104
G1 X107.514 Y127 E8.62668
G1 X106.521 Y126.929 E8.65979
G1 X105.494 Y126.742 E8.69451
G1 X104.78 Y126.519 E8.71939
G1 X104.172 Y126.264 E8.74132
G1 X103.504 Y125.927 E8.7662
G1 X102.655 Y125.353 E8.80029
G1 X101.885 Y124.695 E8.83398
G1 X101.165 Y123.87 E8.8704
G1 X100.597 Y123.04 E8.90385
G1 X100.118 Y122.061 E8.9401
G1 X99.786 Y121.112 E8.97354
G1 X99.579 Y120.051 E9.00949
G1 X99.5 Y118.969 E9.04558
G1 X99.5 Y101.168 E9.63764
G1 X99.531 Y100.515 E9.65938
G1 X99.682 Y99.327 E9.69921
G1 X99.87 Y98.603 E9.72409
G1 X100.133 Y97.905 E9.7489
G1 X100.571 Y97.008 E9.7821
G1 X101.149 Y96.152 E9.81646
G1 X101.808 Y95.382 E9.85016
G0 F3600 X102.109 Y95.647
G1 F1800 X102.856 Y94.995 E9.88314
G1 X103.667 Y94.439 E9.91585
G1 X104.58 Y93.992 E9.94966
G1 X105.511 Y93.666 E9.98247
G1 X106.444 Y93.481 E10.0141
G1 X107.506 Y93.4 E10.04953
G1 X112.486 Y93.4 E10.21516
G1 X113.423 Y93.467 E10.24641
G1 X114.428 Y93.651 E10.28039
G1 X115.435 Y94 E10.31584
G1 X116.315 Y94.431 E10.34843
G1 X117.097 Y94.961 E10.37985
G1 X117.85 Y95.606 E10.41282
G1 X118.514 Y96.368 E10.44644
G1 X119.069 Y97.181 E10.47918
G1 X119.51 Y98.086 E10.51266
G1 X119.834 Y99.015 E10.54539
G1 X120.024 Y99.995 E10.57859
G1 X120.1 Y101.031 E10.61314
G1 X120.1 Y118.832 E11.2052
G1 X120.071 Y119.448 E11.22572
G1 X119.922 Y120.614 E11.26481
G1 X119.736 Y121.317 E11.289
G1 X119.501 Y121.934 E11.31096
G1 X119.072 Y122.812 E11.34346
G1 X118.537 Y123.6 E11.37514
G1 X117.891 Y124.353 E11.40814
G1 X117.144 Y125.005 E11.44112
G1 X116.333 Y125.561 E11.47382
G1 X115.42 Y126.008 E11.50763
G1 X114.489 Y126.334 E11.54044
G1 X113.556 Y126.519 E11.57207
G1 X112.494 Y126.6 E11.6075
G1 X107.514 Y126.6 E11.77314
G1 X106.577 Y126.533 E11.80438
G1 X105.572 Y126.349 E11.83836
G1 X104.565 Y126 E11.87381
G1 X103.685 Y125.569 E11.9064
G1 X102.903 Y125.039 E11.93782
G1 X102.15 Y124.394 E11.9708
G1 X101.486 Y123.632 E12.00441
G1 X100.931 Y122.819 E12.03715
G1 X100.49 Y121.914 E12.07064
G1 X100.166 Y120.985 E12.10336
G1 X99.976 Y120.005 E12.13656
G1 X99.9 Y118.969 E12.17111
G1 X99.9 Y101.168 E12.76318
G1 X99.929 Y100.552 E12.78369
G1 X100.078 Y99.386 E12.82278
G1 X100.264 Y98.683 E12.84697
G1 X100.499 Y98.066 E12.86893
G1 X100.928 Y97.188 E12.90143
G1 X101.463 Y96.4 E12.93311
G1 X102.109 Y95.647 E12.96611
G0 F3600 X102.409 Y95.912
G1 F1800 X103.096 Y95.315 E12.99638
G1 X103.889 Y94.772 E13.02835
G1 X104.728 Y94.364 E13.05938
G1 X105.638 Y94.046 E13.09144
G1 X106.493 Y93.878 E13.12042
G1 X107.506 Y93.8 E13.15421
G1 X112.486 Y93.8 E13.31985
G1 X113.366 Y93.863 E13.34919
G1 X114.349 Y94.044 E13.38244
G1 X115.274 Y94.366 E13.41501
G1 X116.134 Y94.788 E13.44687
G1 X116.85 Y95.275 E13.47568
G1 X117.585 Y95.906 E13.50789
G1 X118.193 Y96.607 E13.53876
G1 X118.735 Y97.402 E13.57076
G1 X119.138 Y98.233 E13.60148
G1 X119.454 Y99.141 E13.63345
G1 X119.627 Y100.041 E13.66394
G1 X119.7 Y101.031 E13.69695
G1 X119.7 Y118.832 E14.28902
G1 X119.673 Y119.411 E14.3083
G1 X119.526 Y120.555 E14.34666
G1 X119.342 Y121.234 E14.37006
G1 X119.135 Y121.773 E14.38926
G1 X118.715 Y122.63 E14.421
G1 X118.223 Y123.352 E14.45006
G1 X117.591 Y124.088 E14.48233
G1 X116.904 Y124.685 E14.5126
G1 X116.111 Y125.228 E14.54457
G1 X115.272 Y125.636 E14.5756
G1 X114.362 Y125.954 E14.60766
G1 X113.507 Y126.122 E14.63664
G1 X112.494 Y126.2 E14.67043
G1 X107.514 Y126.2 E14.83607
G1 X106.634 Y126.137 E14.86541
G1 X105.651 Y125.956 E14.89865
G1 X104.726 Y125.634 E14.93123
G1 X103.866 Y125.212 E14.96309
G1 X103.15 Y124.725 E14.99189
G1 X102.415 Y124.094 E15.02411
G1 X101.807 Y123.393 E15.05498
G1 X101.265 Y122.598 E15.08698
G1 X100.862 Y121.767 E15.1177
G1 X100.546 Y120.859 E15.14967
G1 X100.373 Y119.959 E15.18016
G1 X100.3 Y118.969 E15.21317
G1 X100.3 Y101.168 E15.80524
G1 X100.327 Y100.589 E15.82451
G1 X100.474 Y99.445 E15.86288
G1 X100.658 Y98.766 E15.88628
G1 X100.865 Y98.227 E15.90548
G1 X101.285 Y97.37 E15.93722
G1 X101.777 Y96.648 E15.96628
G1 X102.409 Y95.912 E15.99855
G0 F3600 X102.708 Y96.178
G1 F1800 X103.335 Y95.636 E16.02611
G1 X104.11 Y95.107 E16.05732
G1 X104.875 Y94.736 E16.0856
G1 X105.764 Y94.426 E16.11691
G1 X106.542 Y94.275 E16.14327
G1 X107.506 Y94.2 E16.17543
G1 X112.486 Y94.2 E16.34107
G1 X113.309 Y94.259 E16.36851
G1 X114.269 Y94.437 E16.40099
G1 X115.113 Y94.732 E16.43072
G1 X115.951 Y95.145 E16.4618
G1 X116.602 Y95.589 E16.48801
G1 X117.319 Y96.206 E16.51947
G1 X117.872 Y96.846 E16.5476
G1 X118.4 Y97.622 E16.57882
G1 X118.766 Y98.38 E16.60681
G1 X119.074 Y99.267 E16.63804
G1 X119.229 Y100.087 E16.6658
G1 X119.3 Y101.031 E16.69729
G1 X119.3 Y118.832 E17.28935
G1 X119.275 Y119.373 E17.30736
G1 X119.129 Y120.494 E17.34496
G1 X118.948 Y121.151 E17.36763
G1 X118.668 Y121.842 E17.39243
G1 X118.358 Y122.448 E17.41506
G1 X117.909 Y123.104 E17.4415
G1 X117.292 Y123.822 E17.47299
G1 X116.665 Y124.364 E17.50056
G1 X115.89 Y124.893 E17.53177
G1 X115.125 Y125.264 E17.56004
G1 X114.236 Y125.574 E17.59136
G1 X113.458 Y125.725 E17.61772
G1 X112.494 Y125.8 E17.64988
G1 X107.514 Y125.8 E17.81551
G1 X106.691 Y125.741 E17.84296
G1 X105.731 Y125.563 E17.87543
G1 X104.887 Y125.268 E17.90517
G1 X104.049 Y124.855 E17.93624
G1 X103.398 Y124.411 E17.96245
G1 X102.681 Y123.794 E17.99391
G1 X102.128 Y123.154 E18.02204
G1 X101.6 Y122.378 E18.05326
G1 X101.234 Y121.62 E18.08126
G1 X100.926 Y120.733 E18.11249
G1 X100.771 Y119.913 E18.14024
G1 X100.7 Y118.969 E18.17173
G1 X100.7 Y101.168 E18.76379
G1 X100.725 Y100.627 E18.78181
G1 X100.871 Y99.506 E18.81941
G1 X101.052 Y98.849 E18.84207
G1 X101.332 Y98.158 E18.86687
G1 X101.642 Y97.552 E18.88951
G1 X102.091 Y96.896 E18.91595
G1 X102.708 Y96.178 E18.94744
G0 F3600 X103.007 Y96.445
G1 F1800 X103.575 Y95.956 E18.97236
G1 X104.33 Y95.441 E19.00276
G1 X105.023 Y95.108 E19.02833
G1 X105.889 Y94.807 E19.05883
G1 X106.591 Y94.672 E19.0826
G1 X107.506 Y94.6 E19.11313
G1 X112.486 Y94.6 E19.27877
G1 X113.252 Y94.655 E19.30431
G1 X114.189 Y94.829 E19.33601
G1 X114.952 Y95.099 E19.36293
G1 X115.769 Y95.501 E19.39321
G1 X116.354 Y95.904 E19.41684
G1 X117.053 Y96.505 E19.4475
G1 X117.552 Y97.085 E19.47295
G1 X118.065 Y97.842 E19.50336
G1 X118.394 Y98.528 E19.52867
G1 X118.693 Y99.392 E19.55908
G1 X118.832 Y100.133 E19.58415
G1 X118.9 Y101.031 E19.6141
G1 X118.9 Y118.832 E20.20617
G1 X118.876 Y119.336 E20.22295
G1 X118.733 Y120.433 E20.25975
G1 X118.554 Y121.065 E20.28159
G1 X118.301 Y121.681 E20.30374
G1 X118.001 Y122.266 E20.32561
G1 X117.595 Y122.856 E20.34943
G1 X116.993 Y123.555 E20.38011
G1 X116.425 Y124.044 E20.40504
G1 X115.67 Y124.559 E20.43544
G1 X114.977 Y124.892 E20.46101
G1 X114.111 Y125.193 E20.4915
G1 X113.409 Y125.328 E20.51528
G1 X112.494 Y125.4 E20.54581
G1 X107.514 Y125.4 E20.71144
G1 X106.748 Y125.345 E20.73698
G1 X105.811 Y125.171 E20.76868
G1 X105.048 Y124.901 E20.7956
G1 X104.231 Y124.499 E20.82589
G1 X103.646 Y124.096 E20.84951
G1 X102.947 Y123.495 E20.88017
G1 X102.448 Y122.915 E20.90562
G1 X101.935 Y122.158 E20.93604
G1 X101.606 Y121.472 E20.96134
G1 X101.307 Y120.608 E20.99175
G1 X101.168 Y119.867 E21.01683
G1 X101.1 Y118.969 E21.04678
G1 X101.1 Y101.168 E21.63884
G1 X101.124 Y100.664 E21.65562
G1 X101.267 Y99.567 E21.69242
G1 X101.446 Y98.935 E21.71427
G1 X101.699 Y98.319 E21.73642
G1 X101.999 Y97.734 E21.75828
G1 X102.405 Y97.144 E21.7821
G1 X103.007 Y96.445 E21.81279
G0 F3600 X103.306 Y96.712
G1 F1800 X103.814 Y96.276 E21.83505
G1 X104.549 Y95.777 E21.8646
G1 X105.17 Y95.479 E21.88751
G1 X106.013 Y95.188 E21.91717
G1 X106.641 Y95.069 E21.93843
G1 X107.506 Y95 E21.96729
G1 X112.486 Y95 E22.13293
G1 X113.195 Y95.051 E22.15657
G1 X114.107 Y95.222 E22.18743
G1 X114.791 Y95.465 E22.21157
G1 X115.585 Y95.857 E22.24103
G1 X116.107 Y96.218 E22.26213
G1 X116.785 Y96.804 E22.29194
G1 X117.231 Y97.324 E22.31473
G1 X117.729 Y98.061 E22.34431
G1 X118.022 Y98.675 E22.36694
G1 X118.312 Y99.516 E22.39653
G1 X118.435 Y100.179 E22.41895
G1 X118.5 Y101.031 E22.44737
G1 X118.5 Y118.832 E23.03944
G1 X118.436 Y119.747 E23.06994
G1 X118.337 Y120.371 E23.09096
G1 X118.161 Y120.978 E23.11198
G1 X117.935 Y121.52 E23.13151
G1 X117.645 Y122.082 E23.15254
G1 X117.281 Y122.608 E23.17382
G1 X116.694 Y123.288 E23.2037
G1 X116.186 Y123.724 E23.22596
G1 X115.451 Y124.223 E23.25551
G1 X114.83 Y124.521 E23.27842
G1 X113.987 Y124.812 E23.30808
G1 X113.359 Y124.931 E23.32934
G1 X112.494 Y125 E23.3582
G1 X107.514 Y125 E23.52384
G1 X106.805 Y124.949 E23.54748
G1 X105.893 Y124.778 E23.57834
G1 X105.209 Y124.535 E23.60249
G1 X104.415 Y124.143 E23.63194
G1 X103.893 Y123.782 E23.65305
G1 X103.215 Y123.196 E23.68285
G1 X102.769 Y122.676 E23.70564
G1 X102.271 Y121.939 E23.73522
G1 X101.978 Y121.325 E23.75785
G1 X101.688 Y120.484 E23.78744
G1 X101.565 Y119.821 E23.80987
G1 X101.5 Y118.969 E23.83829
G1 X101.5 Y101.168 E24.43035
G1 X101.564 Y100.253 E24.46086
G1 X101.663 Y99.629 E24.48187
G1 X101.839 Y99.022 E24.50289
G1 X102.065 Y98.48 E24.52242
G1 X102.355 Y97.918 E24.54346
G1 X102.719 Y97.392 E24.56473
G1 X103.306 Y96.712 E24.59461
G0 F3600 X103.604 Y96.981
G1 F1800 X104.054 Y96.597 E24.61429
G1 X104.768 Y96.112 E24.64299
G1 X105.318 Y95.851 E24.66324
G1 X106.137 Y95.569 E24.69205
G1 X106.69 Y95.466 E24.71076
G1 X107.506 Y95.4 E24.73799
G1 X112.486 Y95.4 E24.90363
G1 X113.139 Y95.447 E24.9254
G1 X114.025 Y95.614 E24.95539
G1 X114.63 Y95.831 E24.97677
G1 X115.4 Y96.213 E25.00535
G1 X115.859 Y96.532 E25.02395
G1 X116.517 Y97.102 E25.0529
G1 X116.91 Y97.562 E25.07302
G1 X117.393 Y98.279 E25.10178
G1 X117.65 Y98.822 E25.12176
G1 X117.931 Y99.639 E25.15049
G1 X118.037 Y100.225 E25.1703
G1 X118.1 Y101.031 E25.19719
G1 X118.1 Y118.832 E25.78925
G1 X118.038 Y119.709 E25.8185
