;FLAVOR:Marlin
;TIME:12804
;Filament used: 12.2598m
;Layer height: 0.15
;MINX:62.2
;MINY:62.2
;MINZ:0.2
;MAXX:157.8
;MAXY:157.8
;MAXZ:39.95
;Generated with Cura_SteamEngine 4.6.2
M140 S60
M105
M190 S60
M104 S200
M105
M109 S200
M82 ;absolute extrusion mode
; -- START GCODE --
G21                     ;set units to millimetres
G90                     ;set to absolute positioning
M106 S0                 ;set fan speed to zero (turned off)
G28                     ;home all axis
M420 S1                 ;turn on mesh bed levelling if enabled in firmware
G92 E0                  ;zero the extruded length
G1 Z1 F1000             ;move up slightly
G1 X60.0 Z0 E9.0 F1000.0;intro line
G1 X100.0 E21.5 F1000.0 ;continue line
G92 E0                  ;zero the extruded length again
; -- end of START GCODE --
G92 E0
G92 E0
G1 F3000 E-5
;LAYER_COUNT:266
;LAYER:0
M107
G0 F3600 X64.719 Y64.84 Z0.2
;TYPE:SKIRT
G1 F3000 E0
G1 F1800 X65.297 Y64.303 E0.02624
G1 X65.875 Y63.858 E0.0505
G1 X66.532 Y63.421 E0.07675
G1 X67.231 Y63.053 E0.10302
G1 X67.915 Y62.769 E0.12765
G1 X68.664 Y62.518 E0.15393
G1 X69.778 Y62.293 E0.19173
G1 X71.005 Y62.2 E0.23265
G1 X148.993 Y62.2 E2.82655
G1 X150.126 Y62.283 E2.86433
G1 X151.187 Y62.479 E2.90022
G1 X151.942 Y62.711 E2.92649
G1 X152.407 Y62.897 E2.94314
G1 X153.346 Y63.352 E2.97785
G1 X154.014 Y63.774 E3.00413
G1 X154.563 Y64.194 E3.02712
G1 X155.156 Y64.715 E3.05337
G1 X155.694 Y65.294 E3.07966
G1 X156.142 Y65.875 E3.10406
G1 X156.579 Y66.532 E3.13031
G1 X156.947 Y67.231 E3.15658
G1 X157.226 Y67.901 E3.18072
G1 X157.478 Y68.649 E3.20697
G1 X157.71 Y69.798 E3.24596
G1 X157.8 Y71.003 E3.28615
G1 X157.8 Y98.883 E4.21344
G1 X157.76 Y99.672 E4.23972
G1 X157.641 Y100.452 E4.26596
G1 X157.443 Y101.217 E4.29224
G1 X157.169 Y101.957 E4.31849
G1 X157.144 Y102.007 E4.32035
G1 X157.498 Y102.969 E4.35444
G1 X157.677 Y103.738 E4.3807
G1 X157.777 Y104.522 E4.40699
G1 X157.8 Y105.117 E4.4268
G1 X157.8 Y114.883 E4.75161
G1 X157.76 Y115.672 E4.77789
G1 X157.641 Y116.452 E4.80413
G1 X157.443 Y117.217 E4.83042
G1 X157.169 Y117.957 E4.85666
G1 X157.144 Y118.007 E4.85852
G1 X157.498 Y118.969 E4.89261
G1 X157.677 Y119.738 E4.91887
G1 X157.777 Y120.522 E4.94516
G1 X157.8 Y121.117 E4.96497
G1 X157.8 Y148.993 E5.89213
G1 X157.717 Y150.13 E5.93004
G1 X157.52 Y151.19 E5.9659
G1 X157.288 Y151.944 E5.99214
G1 X157.014 Y152.613 E6.01619
G1 X156.663 Y153.321 E6.04247
G1 X156.243 Y153.99 E6.06874
G1 X155.803 Y154.567 E6.09288
G1 X155.281 Y155.16 E6.11915
G1 X154.703 Y155.697 E6.14539
G1 X154.125 Y156.142 E6.16966
G1 X153.468 Y156.579 E6.1959
G1 X152.769 Y156.947 E6.22217
G1 X152.085 Y157.231 E6.24681
G1 X151.336 Y157.482 E6.27308
G1 X150.222 Y157.707 E6.31088
G1 X148.995 Y157.8 E6.35181
G1 X71.007 Y157.8 E8.9457
G1 X69.874 Y157.717 E8.98348
G1 X68.813 Y157.521 E9.01937
G1 X68.058 Y157.289 E9.04564
G1 X67.593 Y157.103 E9.0623
G1 X66.654 Y156.648 E9.097
G1 X65.986 Y156.226 E9.12328
G1 X65.437 Y155.806 E9.14627
G1 X64.844 Y155.285 E9.17253
G1 X64.306 Y154.706 E9.19881
G1 X63.858 Y154.125 E9.22322
G1 X63.421 Y153.468 E9.24946
G1 X63.053 Y152.769 E9.27573
G1 X62.774 Y152.099 E9.29987
G1 X62.522 Y151.351 E9.32613
G1 X62.29 Y150.202 E9.36511
G1 X62.2 Y148.997 E9.4053
G1 X62.2 Y121.117 E10.3326
G1 X62.24 Y120.328 E10.35887
G1 X62.359 Y119.548 E10.38511
G1 X62.557 Y118.783 E10.4114
G1 X62.831 Y118.043 E10.43764
G1 X62.856 Y117.993 E10.4395
G1 X62.502 Y117.031 E10.4736
G1 X62.323 Y116.262 E10.49986
G1 X62.223 Y115.478 E10.52614
G1 X62.2 Y114.883 E10.54595
G1 X62.2 Y105.117 E10.87077
G1 X62.24 Y104.328 E10.89704
G1 X62.359 Y103.548 E10.92329
G1 X62.557 Y102.783 E10.94957
G1 X62.831 Y102.043 E10.97581
G1 X62.856 Y101.993 E10.97767
G1 X62.502 Y101.031 E11.01177
G1 X62.323 Y100.262 E11.03803
G1 X62.223 Y99.478 E11.06431
G1 X62.2 Y98.883 E11.08412
G1 X62.2 Y71.007 E12.01128
G1 X62.283 Y69.874 E12.04906
G1 X62.479 Y68.813 E12.08495
G1 X62.711 Y68.058 E12.11122
G1 X62.991 Y67.376 E12.13574
G1 X63.343 Y66.668 E12.16204
G1 X63.764 Y66 E12.1883
G1 X64.197 Y65.433 E12.21203
G1 X64.719 Y64.84 E12.23831
G0 F3600 X65.019 Y65.105
G1 F1800 X65.585 Y64.584 E12.26389
G1 X66.113 Y64.18 E12.286
G1 X66.754 Y63.755 E12.31158
G1 X67.436 Y63.399 E12.33717
G1 X68.061 Y63.141 E12.35966
G1 X68.791 Y62.898 E12.38525
G1 X69.828 Y62.69 E12.42043
G1 X71.005 Y62.6 E12.45969
G1 X148.993 Y62.6 E15.05358
G1 X150.068 Y62.679 E15.08943
G1 X151.108 Y62.872 E15.12461
G1 X151.843 Y63.1 E15.15021
G1 X152.48 Y63.365 E15.17316
G1 X153.167 Y63.71 E15.19873
G1 X154.107 Y64.344 E15.23644
G1 X154.892 Y65.016 E15.27081
G1 X155.413 Y65.582 E15.29639
G1 X155.82 Y66.113 E15.31864
G1 X156.245 Y66.754 E15.34423
G1 X156.601 Y67.436 E15.36981
G1 X156.854 Y68.048 E15.39184
G1 X157.099 Y68.777 E15.41742
G1 X157.313 Y69.848 E15.45374
G1 X157.4 Y71.003 E15.49227
G1 X157.4 Y98.883 E16.41956
G1 X157.36 Y99.651 E16.44514
G1 X157.241 Y100.411 E16.47072
G1 X157.043 Y101.154 E16.4963
G1 X156.769 Y101.873 E16.52189
G1 X156.703 Y102.004 E16.52677
G1 X156.901 Y102.445 E16.54285
G1 X157.141 Y103.176 E16.56844
G1 X157.304 Y103.927 E16.594
G1 X157.388 Y104.692 E16.6196
G1 X157.4 Y114.883 E16.95855
G1 X157.36 Y115.651 E16.98413
G1 X157.241 Y116.411 E17.00971
G1 X157.043 Y117.154 E17.03529
G1 X156.769 Y117.873 E17.06088
G1 X156.703 Y118.004 E17.06576
G1 X156.901 Y118.445 E17.08184
G1 X157.141 Y119.176 E17.10743
G1 X157.304 Y119.927 E17.13299
G1 X157.388 Y120.692 E17.15858
G1 X157.4 Y148.993 E18.09988
G1 X157.321 Y150.072 E18.13586
G1 X157.127 Y151.111 E18.17102
G1 X156.898 Y151.845 E18.19659
G1 X156.647 Y152.454 E18.2185
G1 X156.304 Y153.143 E18.2441
G1 X155.893 Y153.793 E18.26968
G1 X155.489 Y154.318 E18.29171
G1 X154.981 Y154.895 E18.31728
G1 X154.415 Y155.416 E18.34287
G1 X153.887 Y155.82 E18.36498
G1 X153.246 Y156.245 E18.39056
G1 X152.564 Y156.601 E18.41615
G1 X151.939 Y156.859 E18.43863
G1 X151.209 Y157.102 E18.46422
G1 X150.172 Y157.31 E18.4994
G1 X148.995 Y157.4 E18.53866
G1 X71.007 Y157.4 E21.13255
G1 X69.932 Y157.321 E21.16841
G1 X68.892 Y157.128 E21.20359
G1 X68.157 Y156.9 E21.22918
G1 X67.52 Y156.635 E21.25213
G1 X66.833 Y156.29 E21.2777
G1 X65.893 Y155.656 E21.31541
G1 X65.108 Y154.984 E21.34978
G1 X64.587 Y154.418 E21.37537
G1 X64.18 Y153.887 E21.39762
G1 X63.755 Y153.246 E21.4232
G1 X63.399 Y152.564 E21.44879
G1 X63.146 Y151.952 E21.47081
G1 X62.901 Y151.223 E21.49639
G1 X62.687 Y150.152 E21.53272
G1 X62.6 Y148.997 E21.57124
G1 X62.6 Y121.117 E22.49853
G1 X62.64 Y120.349 E22.52411
G1 X62.759 Y119.589 E22.5497
G1 X62.957 Y118.846 E22.57527
G1 X63.231 Y118.127 E22.60086
G1 X63.297 Y117.996 E22.60574
G1 X63.099 Y117.555 E22.62182
G1 X62.859 Y116.824 E22.64741
G1 X62.696 Y116.073 E22.67297
G1 X62.612 Y115.308 E22.69857
G1 X62.6 Y105.117 E23.03752
G1 X62.64 Y104.349 E23.0631
G1 X62.759 Y103.589 E23.08869
G1 X62.957 Y102.846 E23.11426
G1 X63.231 Y102.127 E23.13985
G1 X63.297 Y101.996 E23.14473
G1 X63.099 Y101.555 E23.16081
G1 X62.859 Y100.824 E23.1864
G1 X62.696 Y100.073 E23.21196
G1 X62.612 Y99.308 E23.23756
G1 X62.6 Y71.007 E24.17885
G1 X62.679 Y69.932 E24.2147
G1 X62.872 Y68.892 E24.24988
G1 X63.1 Y68.157 E24.27548
G1 X63.358 Y67.535 E24.29788
G1 X63.701 Y66.847 E24.32345
G1 X64.114 Y66.198 E24.34903
G1 X64.511 Y65.682 E24.37069
G1 X65.019 Y65.105 E24.39625
G0 F3600 X65.32 Y65.37
G1 F1800 X66.143 Y64.655 E24.43251
G1 X66.975 Y64.089 E24.46598
G1 X67.962 Y63.609 E24.50249
G1 X68.917 Y63.278 E24.5361
G1 X69.879 Y63.087 E24.56873
G1 X71.005 Y63 E24.60629
G1 X148.993 Y63 E27.20018
G1 X150.01 Y63.074 E27.23409
G1 X151.029 Y63.264 E27.26857
G1 X152.086 Y63.63 E27.30577
G1 X152.987 Y64.068 E27.3391
G1 X153.859 Y64.657 E27.37409
G1 X154.627 Y65.317 E27.40777
G1 X155.345 Y66.143 E27.44418
G1 X155.911 Y66.975 E27.47764
G1 X156.385 Y67.948 E27.51364
G1 X156.719 Y68.904 E27.54732
G1 X156.916 Y69.897 E27.58099
G1 X157 Y71.003 E27.61789
G1 X157 Y98.883 E28.54518
G1 X156.96 Y99.63 E28.57006
G1 X156.841 Y100.368 E28.59492
G1 X156.643 Y101.09 E28.61982
G1 X156.37 Y101.786 E28.64469
G1 X156.263 Y101.991 E28.65238
G1 X156.557 Y102.666 E28.67687
G1 X156.781 Y103.38 E28.70176
G1 X156.928 Y104.113 E28.72662
G1 X157 Y105.117 E28.7601
G1 X157 Y114.883 E29.08492
G1 X156.96 Y115.63 E29.1098
G1 X156.841 Y116.368 E29.13466
G1 X156.643 Y117.09 E29.15956
G1 X156.37 Y117.786 E29.18443
G1 X156.263 Y117.991 E29.19212
G1 X156.557 Y118.666 E29.21661
G1 X156.781 Y119.38 E29.2415
G1 X156.928 Y120.113 E29.26636
G1 X157 Y121.117 E29.29984
G1 X157 Y148.993 E30.227
G1 X156.925 Y150.014 E30.26105
G1 X156.735 Y151.032 E30.2955
G1 X156.381 Y152.062 E30.33172
G1 X155.946 Y152.965 E30.36506
G1 X155.341 Y153.861 E30.40102
G1 X154.68 Y154.63 E30.43474
G1 X153.857 Y155.345 E30.471
G1 X153.025 Y155.911 E30.50447
G1 X152.038 Y156.391 E30.54098
G1 X151.083 Y156.722 E30.57459
G1 X150.121 Y156.913 E30.60721
G1 X148.995 Y157 E30.64478
G1 X71.007 Y157 E33.23867
G1 X69.99 Y156.926 E33.27258
G1 X68.971 Y156.736 E33.30706
G1 X67.914 Y156.37 E33.34426
G1 X67.013 Y155.932 E33.37758
G1 X66.141 Y155.343 E33.41258
G1 X65.373 Y154.683 E33.44626
G1 X64.655 Y153.857 E33.48266
G1 X64.089 Y153.025 E33.51613
G1 X63.615 Y152.052 E33.55213
G1 X63.281 Y151.096 E33.58581
G1 X63.084 Y150.103 E33.61948
G1 X63 Y148.997 E33.65638
G1 X63 Y121.117 E34.58367
G1 X63.04 Y120.37 E34.60855
G1 X63.159 Y119.632 E34.63341
G1 X63.357 Y118.91 E34.65831
G1 X63.63 Y118.214 E34.68318
G1 X63.737 Y118.009 E34.69087
G1 X63.443 Y117.334 E34.71536
G1 X63.219 Y116.62 E34.74025
G1 X63.072 Y115.887 E34.76511
G1 X63 Y114.883 E34.79859
G1 X63 Y105.117 E35.12341
G1 X63.04 Y104.37 E35.14829
G1 X63.159 Y103.632 E35.17315
G1 X63.357 Y102.91 E35.19805
G1 X63.63 Y102.214 E35.22292
G1 X63.737 Y102.009 E35.23061
G1 X63.443 Y101.334 E35.2551
G1 X63.219 Y100.62 E35.27999
G1 X63.072 Y99.887 E35.30485
G1 X63 Y98.883 E35.33833
G1 X63 Y71.007 E36.26549
G1 X63.074 Y69.99 E36.29941
G1 X63.264 Y68.971 E36.33388
G1 X63.624 Y67.927 E36.37061
G1 X64.06 Y67.026 E36.4039
G1 X64.659 Y66.139 E36.4395
G1 X65.32 Y65.37 E36.47323
G0 F3600 X65.619 Y65.636
G1 F1800 X66.381 Y64.977 E36.50674
G1 X67.195 Y64.423 E36.53949
G1 X68.108 Y63.982 E36.57321
G1 X69.043 Y63.659 E36.60611
G1 X69.929 Y63.484 E36.63615
G1 X71.005 Y63.4 E36.67205
G1 X148.993 Y63.4 E39.26594
G1 X149.952 Y63.47 E39.29792
G1 X150.95 Y63.657 E39.33169
G1 X151.926 Y63.996 E39.36605
G1 X152.807 Y64.425 E39.39865
G1 X153.611 Y64.971 E39.43097
G1 X154.361 Y65.617 E39.46389
G1 X155.023 Y66.381 E39.49752
G1 X155.577 Y67.195 E39.53027
G1 X156.013 Y68.095 E39.56353
G1 X156.339 Y69.03 E39.59646
G1 X156.519 Y69.947 E39.62754
G1 X156.6 Y71.003 E39.66277
G1 X156.6 Y98.883 E40.59006
G1 X156.56 Y99.608 E40.61421
G1 X156.441 Y100.325 E40.63839
G1 X156.243 Y101.024 E40.66255
G1 X155.97 Y101.697 E40.6867
G1 X155.807 Y101.999 E40.69812
G1 X156.211 Y102.885 E40.73051
G1 X156.419 Y103.581 E40.75467
G1 X156.549 Y104.296 E40.77884
G1 X156.6 Y105.117 E40.8062
G1 X156.6 Y114.883 E41.13102
G1 X156.56 Y115.608 E41.15517
G1 X156.441 Y116.325 E41.17934
G1 X156.243 Y117.024 E41.2035
G1 X155.97 Y117.697 E41.22766
G1 X155.807 Y117.999 E41.23907
G1 X156.211 Y118.885 E41.27146
G1 X156.419 Y119.581 E41.29562
G1 X156.549 Y120.296 E41.31979
G1 X156.6 Y121.117 E41.34715
G1 X156.6 Y148.993 E42.27431
G1 X156.529 Y149.955 E42.30639
G1 X156.342 Y150.952 E42.34013
G1 X156.014 Y151.903 E42.37359
G1 X155.587 Y152.785 E42.40618
G1 X155.028 Y153.613 E42.43941
G1 X154.381 Y154.364 E42.47238
G1 X153.619 Y155.023 E42.50589
G1 X152.805 Y155.577 E42.53864
G1 X151.892 Y156.018 E42.57236
G1 X150.957 Y156.341 E42.60526
G1 X150.071 Y156.516 E42.6353
G1 X148.995 Y156.6 E42.6712
G1 X71.007 Y156.6 E45.26509
G1 X70.048 Y156.53 E45.29707
G1 X69.05 Y156.343 E45.33084
G1 X68.074 Y156.004 E45.36521
G1 X67.193 Y155.575 E45.3978
G1 X66.389 Y155.029 E45.43012
G1 X65.639 Y154.383 E45.46304
G1 X64.977 Y153.619 E45.49667
G1 X64.423 Y152.805 E45.52942
G1 X63.987 Y151.905 E45.56268
G1 X63.661 Y150.97 E45.59561
G1 X63.481 Y150.053 E45.62669
G1 X63.4 Y148.997 E45.66192
G1 X63.4 Y121.117 E46.58921
G1 X63.44 Y120.392 E46.61336
G1 X63.559 Y119.675 E46.63754
G1 X63.757 Y118.976 E46.6617
G1 X64.03 Y118.303 E46.68586
G1 X64.193 Y118.001 E46.69727
G1 X63.789 Y117.115 E46.72966
G1 X63.581 Y116.419 E46.75382
G1 X63.451 Y115.704 E46.77799
G1 X63.4 Y114.883 E46.80535
G1 X63.4 Y105.117 E47.13017
G1 X63.44 Y104.392 E47.15432
G1 X63.559 Y103.675 E47.17849
G1 X63.757 Y102.976 E47.20265
G1 X64.03 Y102.303 E47.22681
G1 X64.193 Y102.001 E47.23822
G1 X63.789 Y101.115 E47.27061
G1 X63.581 Y100.419 E47.29477
G1 X63.451 Y99.704 E47.31894
G1 X63.4 Y98.883 E47.3463
G1 X63.4 Y71.007 E48.27346
G1 X63.47 Y70.048 E48.30544
G1 X63.657 Y69.05 E48.33921
G1 X63.991 Y68.087 E48.37312
G1 X64.418 Y67.206 E48.40568
G1 X64.972 Y66.387 E48.43857
G1 X65.619 Y65.636 E48.47154
G0 F3600 X65.919 Y65.902
G1 F1800 X66.619 Y65.298 E48.50229
G1 X67.415 Y64.758 E48.53428
G1 X68.254 Y64.354 E48.56525
G1 X69.168 Y64.039 E48.5974
G1 X69.98 Y63.88 E48.62493
G1 X71.005 Y63.8 E48.65912
G1 X148.993 Y63.8 E51.25301
G1 X149.894 Y63.866 E51.28306
G1 X150.869 Y64.049 E51.31605
G1 X151.765 Y64.362 E51.34762
G1 X152.626 Y64.783 E51.3795
G1 X153.362 Y65.284 E51.40911
G1 X154.095 Y65.916 E51.4413
G1 X154.702 Y66.619 E51.47219
G1 X155.242 Y67.415 E51.50419
G1 X155.641 Y68.242 E51.53473
G1 X155.958 Y69.156 E51.5669
G1 X156.123 Y69.996 E51.59537
G1 X156.2 Y71.003 E51.62897
G1 X156.2 Y98.883 E52.55626
G1 X156.16 Y99.586 E52.57968
G1 X156.041 Y100.28 E52.6031
G1 X155.843 Y100.955 E52.62649
G1 X155.571 Y101.604 E52.6499
G1 X155.349 Y101.998 E52.66494
G1 X155.597 Y102.451 E52.68212
G1 X155.864 Y103.102 E52.70552
G1 X156.054 Y103.78 E52.72894
G1 X156.167 Y104.475 E52.75236
G1 X156.2 Y105.117 E52.77374
G1 X156.2 Y114.883 E53.09856
G1 X156.16 Y115.586 E53.12198
G1 X156.041 Y116.28 E53.1454
G1 X155.843 Y116.955 E53.16879
G1 X155.571 Y117.604 E53.1922
G1 X155.349 Y117.998 E53.20724
G1 X155.597 Y118.451 E53.22442
G1 X155.864 Y119.102 E53.24782
G1 X156.054 Y119.78 E53.27124
G1 X156.167 Y120.475 E53.29466
G1 X156.2 Y121.117 E53.31604
G1 X156.2 Y148.993 E54.2432
G1 X156.134 Y149.897 E54.27335
G1 X155.95 Y150.871 E54.30631
G1 X155.647 Y151.744 E54.33705
G1 X155.229 Y152.606 E54.36891
G1 X154.714 Y153.364 E54.39939
G1 X154.081 Y154.098 E54.43163
G1 X153.381 Y154.702 E54.46238
G1 X152.585 Y155.242 E54.49437
G1 X151.746 Y155.646 E54.52535
G1 X150.832 Y155.961 E54.5575
G1 X150.02 Y156.12 E54.58502
G1 X148.995 Y156.2 E54.61921
G1 X71.007 Y156.2 E57.21311
G1 X70.106 Y156.134 E57.24315
G1 X69.131 Y155.951 E57.27615
G1 X68.235 Y155.638 E57.30772
G1 X67.374 Y155.217 E57.33959
G1 X66.638 Y154.716 E57.36921
G1 X65.905 Y154.084 E57.4014
G1 X65.298 Y153.381 E57.43229
G1 X64.758 Y152.585 E57.46428
G1 X64.359 Y151.758 E57.49482
G1 X64.042 Y150.844 E57.527
G1 X63.877 Y150.004 E57.55547
G1 X63.8 Y148.997 E57.58906
G1 X63.8 Y121.117 E58.51635
G1 X63.84 Y120.414 E58.53977
G1 X63.959 Y119.72 E58.56319
G1 X64.157 Y119.045 E58.58659
G1 X64.429 Y118.396 E58.60999
G1 X64.651 Y118.002 E58.62503
G1 X64.403 Y117.549 E58.64221
G1 X64.136 Y116.898 E58.66561
G1 X63.946 Y116.22 E58.68903
G1 X63.833 Y115.525 E58.71245
G1 X63.8 Y114.883 E58.73383
G1 X63.8 Y105.117 E59.05865
G1 X63.84 Y104.414 E59.08207
G1 X63.959 Y103.72 E59.10549
G1 X64.157 Y103.045 E59.12889
G1 X64.429 Y102.396 E59.15229
G1 X64.651 Y102.002 E59.16733
G1 X64.403 Y101.549 E59.18451
G1 X64.136 Y100.898 E59.20791
G1 X63.946 Y100.22 E59.23133
G1 X63.833 Y99.525 E59.25475
G1 X63.8 Y98.883 E59.27613
G1 X63.8 Y71.007 E60.20329
G1 X63.866 Y70.106 E60.23334
G1 X64.049 Y69.131 E60.26634
G1 X64.357 Y68.246 E60.2975
G1 X64.776 Y67.386 E60.32932
