;FLAVOR:Marlin
;TIME:636
;Filament used: 0.440116m
;Layer height: 0.15
;MINX:97.7
;MINY:97.7
;MINZ:0.2
;MAXX:122.3
;MAXY:122.3
;MAXZ:26
;Generated with Cura_SteamEngine 4.6.2
M140 S60
M105
M190 S60
M104 S200
M105
M109 S200
M82 ;absolute extrusion mode
; -- START GCODE --
G21                     ;set units to millimetres
G90                     ;set to absolute positioning
M106 S0                 ;set fan speed to zero (turned off)
G28                     ;home all axis
M420 S1                 ;turn on mesh bed levelling if enabled in firmware
G92 E0                  ;zero the extruded length
G1 Z1 F1000             ;move up slightly
G1 X60.0 Z0 E9.0 F1000.0;intro line
G1 X100.0 E21.5 F1000.0 ;continue line
G92 E0                  ;zero the extruded length again
; -- end of START GCODE --
G92 E0
G92 E0
G1 F3000 E-5
;LAYER_COUNT:173
;LAYER:0
M107
G0 F3600 X100.292 Y100.281 Z0.2
;TYPE:SKIRT
G1 F3000 E0
G1 F1800 X101.111 Y99.547 E0.03658
G1 X101.756 Y99.091 E0.06285
G1 X102.583 Y98.634 E0.09428
G1 X103.593 Y98.199 E0.13085
G1 X104.349 Y97.972 E0.15711
G1 X105.007 Y97.84 E0.17943
G1 X106.093 Y97.711 E0.2158
G1 X113.462 Y97.7 E0.4609
G1 X114.251 Y97.74 E0.48717
G1 X115.051 Y97.855 E0.51405
G1 X115.824 Y98.018 E0.54033
G1 X116.576 Y98.258 E0.56658
G1 X117.113 Y98.484 E0.58596
G1 X117.994 Y98.937 E0.61891
G1 X118.652 Y99.375 E0.6452
G1 X119.268 Y99.873 E0.67155
G1 X119.847 Y100.411 E0.69784
G1 X120.368 Y101.004 E0.72409
G1 X120.867 Y101.713 E0.75293
G1 X121.421 Y102.675 E0.78985
G1 X121.734 Y103.4 E0.81611
G1 X121.985 Y104.208 E0.84426
G1 X122.212 Y105.268 E0.88031
G1 X122.295 Y106.398 E0.918
G1 X122.3 Y113.456 E1.15275
G1 X122.261 Y114.245 E1.17902
G1 X122.142 Y115.067 E1.20664
G1 X121.977 Y115.839 E1.2329
G1 X121.736 Y116.591 E1.25917
G1 X121.32 Y117.506 E1.2926
G1 X120.766 Y118.458 E1.32923
G1 X120.292 Y119.09 E1.35551
G1 X119.708 Y119.719 E1.38405
G1 X118.889 Y120.453 E1.42063
G1 X118.244 Y120.909 E1.44691
G1 X117.417 Y121.366 E1.47833
G1 X116.407 Y121.801 E1.51491
G1 X115.651 Y122.028 E1.54116
G1 X114.993 Y122.16 E1.56348
G1 X113.907 Y122.289 E1.59986
G1 X106.538 Y122.3 E1.84495
G1 X105.749 Y122.26 E1.87123
G1 X104.933 Y122.142 E1.89865
G1 X104.161 Y121.977 E1.92491
G1 X103.409 Y121.736 E1.95117
G1 X102.494 Y121.32 E1.9846
G1 X101.542 Y120.766 E2.02124
G1 X100.91 Y120.292 E2.04751
G1 X100.281 Y119.708 E2.07606
G1 X99.547 Y118.889 E2.11264
G1 X99.091 Y118.244 E2.13891
G1 X98.634 Y117.417 E2.17034
G1 X98.199 Y116.407 E2.20691
G1 X97.972 Y115.651 E2.23317
G1 X97.842 Y115.005 E2.25508
G1 X97.712 Y113.922 E2.29136
G1 X97.7 Y106.538 E2.53696
G1 X97.74 Y105.749 E2.56323
G1 X97.858 Y104.933 E2.59066
G1 X98.023 Y104.161 E2.61691
G1 X98.264 Y103.409 E2.64318
G1 X98.68 Y102.494 E2.67661
G1 X99.234 Y101.542 E2.71324
G1 X99.708 Y100.91 E2.73952
G1 X100.292 Y100.281 E2.76807
G0 F3600 X100.569 Y100.569
G1 F1800 X101.374 Y99.849 E2.80399
G1 X102.004 Y99.407 E2.82958
G1 X102.755 Y98.996 E2.85806
G1 X103.746 Y98.569 E2.89395
G1 X104.484 Y98.351 E2.91954
G1 X105.068 Y98.236 E2.93934
G1 X106.511 Y98.1 E2.98755
G1 X113.462 Y98.1 E3.21874
G1 X114.23 Y98.14 E3.24432
G1 X114.988 Y98.25 E3.26979
G1 X115.741 Y98.41 E3.2954
G1 X116.472 Y98.647 E3.32095
G1 X116.944 Y98.847 E3.338
G1 X117.807 Y99.291 E3.37028
G1 X118.446 Y99.72 E3.39588
G1 X119.011 Y100.179 E3.42009
G1 X119.574 Y100.704 E3.4457
G1 X120.079 Y101.284 E3.47128
G1 X120.528 Y101.925 E3.49731
G1 X121.071 Y102.87 E3.53356
G1 X121.373 Y103.577 E3.55913
G1 X121.598 Y104.306 E3.5845
G1 X121.819 Y105.346 E3.61987
G1 X121.895 Y106.399 E3.65498
G1 X121.9 Y113.457 E3.88973
G1 X121.861 Y114.225 E3.91531
G1 X121.747 Y115.004 E3.94149
G1 X121.586 Y115.756 E3.96707
G1 X121.347 Y116.487 E3.99265
G1 X120.967 Y117.318 E4.02304
G1 X120.423 Y118.251 E4.05896
G1 X119.959 Y118.865 E4.08456
G1 X119.431 Y119.431 E4.1103
G1 X118.626 Y120.151 E4.14623
G1 X117.996 Y120.593 E4.17182
G1 X117.245 Y121.004 E4.2003
G1 X116.254 Y121.431 E4.23619
G1 X115.516 Y121.649 E4.26178
G1 X114.932 Y121.764 E4.28158
G1 X113.489 Y121.9 E4.32979
G1 X106.538 Y121.9 E4.56098
G1 X105.77 Y121.86 E4.58656
G1 X104.996 Y121.747 E4.61257
G1 X104.244 Y121.586 E4.63815
G1 X103.513 Y121.347 E4.66373
G1 X102.682 Y120.967 E4.69412
G1 X101.749 Y120.423 E4.73004
G1 X101.135 Y119.959 E4.75564
G1 X100.569 Y119.431 E4.78138
G1 X99.849 Y118.626 E4.81731
G1 X99.407 Y117.996 E4.8429
G1 X98.996 Y117.245 E4.87138
G1 X98.569 Y116.254 E4.90727
G1 X98.351 Y115.516 E4.93286
G1 X98.237 Y114.943 E4.95229
G1 X98.11 Y113.88 E4.9879
G1 X98.1 Y106.538 E5.2321
G1 X98.14 Y105.77 E5.25767
G1 X98.253 Y104.996 E5.28369
G1 X98.414 Y104.244 E5.30927
G1 X98.653 Y103.513 E5.33485
G1 X99.033 Y102.682 E5.36524
G1 X99.577 Y101.749 E5.40116
G1 X100.041 Y101.135 E5.42676
G1 X100.569 Y100.569 E5.4525
G0 F3600 X100.847 Y100.857
G1 F1800 X101.637 Y100.151 E5.48774
G1 X102.251 Y99.725 E5.5126
G1 X102.927 Y99.357 E5.5382
G1 X103.898 Y98.94 E5.57335
G1 X104.617 Y98.731 E5.59825
G1 X105.13 Y98.631 E5.61563
G1 X106.511 Y98.5 E5.66177
G1 X113.462 Y98.5 E5.89296
G1 X114.561 Y98.587 E5.92963
G1 X115.657 Y98.801 E5.96677
G1 X116.368 Y99.035 E5.99167
G1 X116.959 Y99.294 E6.01313
G1 X117.619 Y99.645 E6.03799
G1 X118.511 Y100.282 E6.07445
G1 X119.3 Y100.997 E6.10986
G1 X119.789 Y101.563 E6.13474
G1 X120.189 Y102.137 E6.15801
G1 X120.721 Y103.064 E6.19356
G1 X121.011 Y103.753 E6.21842
G1 X121.21 Y104.404 E6.24106
G1 X121.426 Y105.423 E6.27571
G1 X121.495 Y106.399 E6.30825
G1 X121.5 Y113.457 E6.543
G1 X121.411 Y114.573 E6.58024
G1 X121.194 Y115.671 E6.61746
G1 X120.959 Y116.381 E6.64234
G1 X120.614 Y117.129 E6.66974
G1 X120.08 Y118.044 E6.70497
G1 X119.626 Y118.639 E6.72987
G1 X119.153 Y119.143 E6.75285
G1 X118.363 Y119.849 E6.78809
G1 X117.749 Y120.275 E6.81295
G1 X117.073 Y120.643 E6.83855
G1 X116.102 Y121.06 E6.8737
G1 X115.383 Y121.269 E6.8986
G1 X114.87 Y121.369 E6.91598
G1 X113.489 Y121.5 E6.96212
G1 X106.538 Y121.5 E7.19331
G1 X105.427 Y121.411 E7.23038
G1 X104.329 Y121.194 E7.26761
G1 X103.619 Y120.959 E7.29248
G1 X102.871 Y120.614 E7.31988
G1 X101.956 Y120.08 E7.35512
G1 X101.361 Y119.626 E7.38001
G1 X100.857 Y119.153 E7.403
G1 X100.151 Y118.363 E7.43824
G1 X99.725 Y117.749 E7.4631
G1 X99.357 Y117.073 E7.48869
G1 X98.94 Y116.102 E7.52384
G1 X98.731 Y115.383 E7.54875
G1 X98.632 Y114.881 E7.56576
G1 X98.5 Y113.492 E7.61217
G1 X98.5 Y106.538 E7.84346
G1 X98.589 Y105.427 E7.88053
G1 X98.806 Y104.329 E7.91776
G1 X99.041 Y103.619 E7.94263
G1 X99.386 Y102.871 E7.97003
G1 X99.92 Y101.956 E8.00527
G1 X100.374 Y101.361 E8.03016
G1 X100.847 Y100.857 E8.05315
G0 F3600 X101.125 Y101.145
G1 F1800 X101.899 Y100.454 E8.08766
G1 X102.497 Y100.043 E8.11179
G1 X103.098 Y99.718 E8.13452
G1 X104.05 Y99.31 E8.16897
G1 X104.749 Y99.111 E8.19314
G1 X105.493 Y98.979 E8.21827
G1 X106.511 Y98.9 E8.25223
G1 X113.462 Y98.9 E8.48342
G1 X114.498 Y98.982 E8.51799
G1 X115.573 Y99.193 E8.55443
G1 X116.262 Y99.423 E8.57858
G1 X116.79 Y99.657 E8.59779
G1 X117.431 Y99.999 E8.62196
G1 X118.254 Y100.588 E8.65562
G1 X119.026 Y101.289 E8.6903
G1 X119.498 Y101.841 E8.71446
G1 X119.85 Y102.349 E8.73501
G1 X120.37 Y103.257 E8.76982
G1 X120.649 Y103.928 E8.79399
G1 X120.822 Y104.502 E8.81393
G1 X121.033 Y105.5 E8.84785
G1 X121.095 Y106.399 E8.87782
G1 X121.1 Y113.457 E9.11257
G1 X121.016 Y114.51 E9.14771
G1 X120.803 Y115.586 E9.18419
G1 X120.571 Y116.275 E9.20837
G1 X120.262 Y116.94 E9.23276
G1 X119.737 Y117.836 E9.2673
G1 X119.294 Y118.412 E9.29147
G1 X118.875 Y118.855 E9.31175
G1 X118.101 Y119.546 E9.34626
G1 X117.503 Y119.957 E9.37039
G1 X116.902 Y120.282 E9.39312
G1 X115.95 Y120.69 E9.42757
G1 X115.251 Y120.889 E9.45174
G1 X114.507 Y121.021 E9.47687
G1 X113.489 Y121.1 E9.51083
G1 X106.538 Y121.1 E9.74202
G1 X105.49 Y121.016 E9.77699
G1 X104.414 Y120.803 E9.81348
G1 X103.725 Y120.571 E9.83766
G1 X103.06 Y120.262 E9.86205
G1 X102.164 Y119.737 E9.89659
G1 X101.588 Y119.294 E9.92075
G1 X101.145 Y118.875 E9.94103
G1 X100.454 Y118.101 E9.97554
G1 X100.043 Y117.503 E9.99968
G1 X99.718 Y116.902 E10.0224
G1 X99.31 Y115.95 E10.05685
G1 X99.111 Y115.251 E10.08103
G1 X98.981 Y114.52 E10.10572
G1 X98.9 Y113.492 E10.14002
G1 X98.9 Y106.538 E10.37131
G1 X98.984 Y105.49 E10.40628
G1 X99.197 Y104.414 E10.44276
G1 X99.429 Y103.725 E10.46694
G1 X99.738 Y103.06 E10.49133
G1 X100.263 Y102.164 E10.52587
G1 X100.706 Y101.588 E10.55004
G1 X101.125 Y101.145 E10.57032
G0 F3600 X101.402 Y101.433
G1 F1800 X102.16 Y100.758 E10.60408
G1 X102.742 Y100.362 E10.62749
G1 X103.27 Y100.08 E10.6474
G1 X104.202 Y99.681 E10.68112
G1 X104.88 Y99.491 E10.70454
G1 X105.554 Y99.374 E10.72729
G1 X106.511 Y99.3 E10.75922
G1 X113.462 Y99.3 E10.99041
G1 X114.435 Y99.377 E11.02287
G1 X115.488 Y99.585 E11.05857
G1 X116.439 Y99.935 E11.09227
G1 X117.242 Y100.352 E11.12237
G1 X117.996 Y100.894 E11.15325
G1 X118.752 Y101.581 E11.18723
G1 X119.207 Y102.119 E11.21066
G1 X119.511 Y102.561 E11.22851
G1 X120.019 Y103.45 E11.26256
G1 X120.286 Y104.102 E11.286
G1 X120.434 Y104.6 E11.30328
G1 X120.64 Y105.577 E11.33648
G1 X120.695 Y106.4 E11.36392
G1 X120.7 Y113.458 E11.59867
G1 X120.621 Y114.446 E11.63164
G1 X120.411 Y115.501 E11.66741
G1 X120.183 Y116.167 E11.69083
G1 X119.909 Y116.752 E11.71231
G1 X119.395 Y117.628 E11.74609
G1 X118.963 Y118.183 E11.76949
G1 X118.598 Y118.567 E11.78711
G1 X117.84 Y119.242 E11.82086
G1 X117.258 Y119.638 E11.84428
G1 X116.73 Y119.92 E11.86419
G1 X115.798 Y120.319 E11.89791
G1 X115.12 Y120.509 E11.92133
G1 X114.446 Y120.626 E11.94408
G1 X113.489 Y120.7 E11.976
G1 X106.538 Y120.7 E12.20719
G1 X105.554 Y120.621 E12.24003
G1 X104.499 Y120.411 E12.27581
G1 X103.833 Y120.183 E12.29922
G1 X103.248 Y119.909 E12.3207
G1 X102.372 Y119.395 E12.35449
G1 X101.817 Y118.963 E12.37788
G1 X101.433 Y118.598 E12.3955
G1 X100.758 Y117.84 E12.42926
G1 X100.362 Y117.258 E12.45267
G1 X100.08 Y116.73 E12.47258
G1 X99.681 Y115.798 E12.5063
G1 X99.491 Y115.12 E12.52972
G1 X99.376 Y114.458 E12.55207
G1 X99.3 Y113.492 E12.5843
G1 X99.3 Y106.538 E12.81559
G1 X99.379 Y105.554 E12.84842
G1 X99.589 Y104.499 E12.8842
G1 X99.817 Y103.833 E12.90761
G1 X100.091 Y103.248 E12.9291
G1 X100.605 Y102.372 E12.96288
G1 X101.037 Y101.817 E12.98627
G1 X101.402 Y101.433 E13.00389
G0 F3600 X101.904 Y101.505
G1 F1800 X102.421 Y101.062 E13.02654
G1 X102.986 Y100.682 E13.04918
G1 X103.441 Y100.441 E13.06631
G1 X104.353 Y100.052 E13.09928
G1 X105.315 Y99.816 E13.13223
G1 X106.511 Y99.7 E13.1722
G1 X113.462 Y99.7 E13.40339
G1 X114.372 Y99.772 E13.43375
G1 X115.402 Y99.976 E13.46867
G1 X116.27 Y100.298 E13.49946
G1 X117.053 Y100.705 E13.52881
G1 X117.739 Y101.201 E13.55697
G1 X118.477 Y101.872 E13.59015
G1 X118.914 Y102.395 E13.61281
G1 X119.341 Y103.045 E13.63868
G1 X119.668 Y103.643 E13.66135
G1 X119.922 Y104.274 E13.68397
G1 X120.118 Y104.983 E13.70844
G1 X120.246 Y105.652 E13.73109
G1 X120.295 Y106.4 E13.75603
G1 X120.3 Y113.458 E13.99078
G1 X120.226 Y114.383 E14.02164
G1 X120.02 Y115.414 E14.05661
G1 X119.796 Y116.057 E14.07926
G1 X119.556 Y116.563 E14.09788
G1 X119.053 Y117.419 E14.1309
G1 X118.632 Y117.954 E14.15355
G1 X118.096 Y118.495 E14.17888
G1 X117.579 Y118.938 E14.20152
G1 X117.014 Y119.318 E14.22417
G1 X116.559 Y119.559 E14.24129
G1 X115.647 Y119.948 E14.27427
G1 X114.685 Y120.184 E14.30722
G1 X113.489 Y120.3 E14.34718
G1 X106.538 Y120.3 E14.57837
G1 X105.617 Y120.226 E14.6091
G1 X104.586 Y120.02 E14.64407
G1 X103.943 Y119.796 E14.66672
G1 X103.437 Y119.556 E14.68535
G1 X102.581 Y119.053 E14.71837
G1 X102.046 Y118.632 E14.74101
G1 X101.505 Y118.096 E14.76634
G1 X101.062 Y117.579 E14.78899
G1 X100.682 Y117.014 E14.81163
G1 X100.441 Y116.559 E14.82876
G1 X100.052 Y115.647 E14.86174
G1 X99.818 Y114.694 E14.89437
G1 X99.7 Y113.492 E14.93454
G1 X99.7 Y106.538 E15.16584
G1 X99.774 Y105.617 E15.19657
G1 X99.98 Y104.586 E15.23154
G1 X100.204 Y103.943 E15.25418
G1 X100.444 Y103.437 E15.27281
G1 X100.947 Y102.581 E15.30583
G1 X101.368 Y102.046 E15.32847
G1 X101.904 Y101.505 E15.3538
G0 F3600 X102.182 Y101.793
G1 F1800 X102.681 Y101.366 E15.37565
G1 X103.229 Y101.004 E15.39749
G1 X103.893 Y100.669 E15.42223
G1 X104.503 Y100.424 E15.44409
G1 X105.377 Y100.212 E15.474
G1 X106.511 Y100.1 E15.51191
G1 X113.462 Y100.1 E15.7431
G1 X114.309 Y100.167 E15.77136
G1 X115.316 Y100.367 E15.8055
G1 X116.102 Y100.661 E15.83341
G1 X116.863 Y101.058 E15.86196
G1 X117.482 Y101.507 E15.8874
G1 X118.202 Y102.163 E15.91979
G1 X118.62 Y102.67 E15.94165
G1 X119.002 Y103.257 E15.96494
G1 X119.316 Y103.834 E15.98679
G1 X119.557 Y104.445 E16.00864
G1 X119.731 Y105.081 E16.03057
G1 X119.852 Y105.727 E16.05243
G1 X119.895 Y106.4 E16.07486
G1 X119.9 Y113.458 E16.30961
G1 X119.832 Y114.319 E16.33833
G1 X119.629 Y115.327 E16.37253
G1 X119.409 Y115.946 E16.39438
G1 X119.056 Y116.65 E16.42058
G1 X118.712 Y117.209 E16.44241
G1 X118.302 Y117.723 E16.46427
G1 X117.818 Y118.207 E16.48704
G1 X117.319 Y118.634 E16.50888
G1 X116.771 Y118.996 E16.53073
G1 X116.107 Y119.331 E16.55546
G1 X115.497 Y119.576 E16.57733
G1 X114.623 Y119.788 E16.60724
G1 X113.489 Y119.9 E16.64514
G1 X106.538 Y119.9 E16.87633
G1 X105.681 Y119.832 E16.90493
G1 X104.673 Y119.629 E16.93913
G1 X104.054 Y119.409 E16.96098
G1 X103.35 Y119.056 E16.98717
G1 X102.791 Y118.712 E17.009
G1 X102.277 Y118.302 E17.03087
G1 X101.793 Y117.818 E17.05363
G1 X101.366 Y117.319 E17.07548
G1 X101.004 Y116.771 E17.09732
G1 X100.669 Y116.107 E17.12206
G1 X100.424 Y115.497 E17.14392
G1 X100.213 Y114.631 E17.17357
G1 X100.1 Y113.492 E17.21164
G1 X100.1 Y106.538 E17.44293
G1 X100.168 Y105.681 E17.47152
G1 X100.371 Y104.673 E17.50572
G1 X100.591 Y104.054 E17.52757
G1 X100.944 Y103.35 E17.55377
G1 X101.288 Y102.791 E17.5756
G1 X101.698 Y102.277 E17.59746
G1 X102.182 Y101.793 E17.62023
G0 F3600 X102.235 Y102.297
G1 F1800 X102.941 Y101.672 E17.65159
G1 X103.471 Y101.327 E17.67262
G1 X104.065 Y101.031 E17.6947
G1 X104.652 Y100.796 E17.71573
G1 X105.439 Y100.607 E17.74265
G1 X106.511 Y100.5 E17.77848
G1 X113.462 Y100.5 E18.00967
G1 X114.247 Y100.562 E18.03586
G1 X115.228 Y100.758 E18.06914
G1 X115.933 Y101.023 E18.09419
G1 X116.672 Y101.41 E18.12193
G1 X117.225 Y101.814 E18.14471
G1 X117.925 Y102.454 E18.17626
G1 X118.493 Y103.197 E18.20736
G1 X118.963 Y104.025 E18.23903
G1 X119.271 Y104.894 E18.26969
G1 X119.458 Y105.801 E18.30049
G1 X119.495 Y106.4 E18.32046
G1 X119.5 Y113.458 E18.55521
G1 X119.437 Y114.256 E18.58183
G1 X119.238 Y115.239 E18.61519
G1 X119.022 Y115.833 E18.63621
G1 X118.704 Y116.461 E18.65962
G1 X118.371 Y116.999 E18.68067
G1 X117.765 Y117.703 E18.71156
G1 X117.059 Y118.328 E18.74292
G1 X116.529 Y118.673 E18.76396
G1 X115.935 Y118.969 E18.78603
G1 X115.348 Y119.204 E18.80706
G1 X114.561 Y119.393 E18.83398
G1 X113.489 Y119.5 E18.86981
G1 X106.538 Y119.5 E19.101
G1 X105.744 Y119.437 E19.1275
G1 X104.761 Y119.238 E19.16085
G1 X104.167 Y119.022 E19.18188
G1 X103.539 Y118.704 E19.20529
G1 X103.001 Y118.371 E19.22633
G1 X102.297 Y117.765 E19.25723
G1 X101.672 Y117.059 E19.28859
G1 X101.327 Y116.529 E19.30962
G1 X101.031 Y115.935 E19.3317
G1 X100.796 Y115.348 E19.35273
G1 X100.608 Y114.569 E19.37938
G1 X100.5 Y113.492 E19.41538
G1 X100.5 Y106.538 E19.64667
G1 X100.563 Y105.744 E19.67316
G1 X100.762 Y104.761 E19.70652
G1 X100.978 Y104.167 E19.72754
G1 X101.296 Y103.539 E19.75096
G1 X101.629 Y103.001 E19.772
G1 X102.235 Y102.297 E19.8029
G0 F3600 X102.513 Y102.585
G1 F1800 X103.2 Y101.978 E19.83339
G1 X103.956 Y101.525 E19.8627
G1 X104.8 Y101.168 E19.89318
G1 X105.5 Y101.002 E19.91711
G1 X106.511 Y100.9 E19.9509
G1 X113.462 Y100.9 E20.18209
G1 X114.184 Y100.957 E20.20618
G1 X115.14 Y101.149 E20.23861
G1 X115.765 Y101.386 E20.26085
