;FLAVOR:Marlin
;TIME:603
;Filament used: 0.511008m
;Layer height: 0.15
;MINX:92.7
;MINY:92.2
;MINZ:0.2
;MAXX:127.3
;MAXY:127.8
;MAXZ:5
;Generated with Cura_SteamEngine 4.6.2
M140 S60
M105
M190 S60
M104 S200
M105
M109 S200
M82 ;absolute extrusion mode
; -- START GCODE --
G21                     ;set units to millimetres
G90                     ;set to absolute positioning
M106 S0                 ;set fan speed to zero (turned off)
G28                     ;home all axis
M420 S1                 ;turn on mesh bed levelling if enabled in firmware
G92 E0                  ;zero the extruded length
G1 Z1 F1000             ;move up slightly
G1 X60.0 Z0 E9.0 F1000.0;intro line
G1 X100.0 E21.5 F1000.0 ;continue line
G92 E0                  ;zero the extruded length again
; -- end of START GCODE --
G92 E0
G92 E0
G1 F3000 E-5
;LAYER_COUNT:33
;LAYER:0
M107
G0 F3600 X95.448 Y94.617 Z0.2
;TYPE:SKIRT
G1 F3000 E0
G1 F1800 X96.044 Y94.1 E0.02624
G1 X96.741 Y93.614 E0.0545
G1 X97.7 Y93.067 E0.09122
G1 X98.427 Y92.757 E0.11751
G1 X99.187 Y92.521 E0.14398
G1 X100.252 Y92.291 E0.18022
G1 X101.404 Y92.205 E0.21864
G1 X118.151 Y92.2 E0.77565
G1 X119.009 Y92.229 E0.8042
G1 X119.796 Y92.301 E0.83049
G1 X120.571 Y92.452 E0.85675
G1 X121.484 Y92.74 E0.88859
G1 X122.537 Y93.186 E0.92662
G1 X123.223 Y93.578 E0.9529
G1 X124.074 Y94.207 E0.9881
G1 X124.883 Y94.948 E1.02459
G1 X125.4 Y95.544 E1.05083
G1 X125.882 Y96.234 E1.07882
G1 X126.431 Y97.194 E1.11561
G1 X126.741 Y97.92 E1.14186
G1 X126.983 Y98.701 E1.16906
G1 X127.211 Y99.763 E1.20518
G1 X127.295 Y100.903 E1.2432
G1 X127.3 Y118.631 E1.83284
G1 X127.272 Y119.497 E1.86166
G1 X127.201 Y120.284 E1.88794
G1 X127.05 Y121.059 E1.9142
G1 X126.763 Y121.976 E1.94616
G1 X126.317 Y123.03 E1.98422
G1 X125.927 Y123.716 E2.01047
G1 X125.293 Y124.574 E2.04595
G1 X124.552 Y125.383 E2.08244
G1 X123.956 Y125.9 E2.10868
G1 X123.259 Y126.386 E2.13695
G1 X122.3 Y126.933 E2.17367
G1 X121.573 Y127.243 E2.19995
G1 X120.813 Y127.479 E2.22642
G1 X119.748 Y127.709 E2.26266
G1 X118.596 Y127.795 E2.30108
G1 X101.849 Y127.8 E2.85809
G1 X100.991 Y127.771 E2.88664
G1 X100.204 Y127.699 E2.91293
G1 X99.429 Y127.548 E2.93919
G1 X98.516 Y127.26 E2.97103
G1 X97.463 Y126.814 E3.00907
G1 X96.777 Y126.422 E3.03534
G1 X95.926 Y125.793 E3.07054
G1 X95.117 Y125.052 E3.10703
G1 X94.6 Y124.456 E3.13327
G1 X94.118 Y123.766 E3.16127
G1 X93.569 Y122.806 E3.19805
G1 X93.259 Y122.08 E3.2243
G1 X93.017 Y121.299 E3.2515
G1 X92.789 Y120.237 E3.28763
G1 X92.705 Y119.097 E3.32565
G1 X92.7 Y101.369 E3.91528
G1 X92.728 Y100.503 E3.9441
G1 X92.799 Y99.716 E3.97038
G1 X92.95 Y98.941 E3.99664
G1 X93.237 Y98.024 E4.0286
G1 X93.683 Y96.97 E4.06667
G1 X94.073 Y96.284 E4.09291
G1 X94.707 Y95.426 E4.1284
G1 X95.448 Y94.617 E4.16488
G0 F3600 X95.739 Y94.892
G1 F1800 X96.322 Y94.39 E4.19047
G1 X96.951 Y93.954 E4.21593
G1 X97.893 Y93.418 E4.25198
G1 X98.602 Y93.119 E4.27757
G1 X99.286 Y92.909 E4.30137
G1 X100.331 Y92.684 E4.33692
G1 X101.404 Y92.605 E4.3727
G1 X118.151 Y92.6 E4.92971
G1 X118.993 Y92.628 E4.95773
G1 X119.759 Y92.7 E4.98332
G1 X120.513 Y92.85 E5.00889
G1 X121.341 Y93.113 E5.03779
G1 X122.375 Y93.553 E5.07516
G1 X123.041 Y93.936 E5.10071
G1 X123.815 Y94.512 E5.1328
G1 X124.608 Y95.239 E5.16859
G1 X125.11 Y95.822 E5.19417
G1 X125.542 Y96.445 E5.21939
G1 X126.08 Y97.388 E5.2555
G1 X126.379 Y98.096 E5.28106
G1 X126.595 Y98.799 E5.30552
G1 X126.818 Y99.841 E5.34096
G1 X126.895 Y100.903 E5.37638
G1 X126.9 Y118.631 E5.96601
G1 X126.872 Y119.482 E5.99433
G1 X126.802 Y120.248 E6.01992
G1 X126.652 Y121.002 E6.04549
G1 X126.39 Y121.833 E6.07447
G1 X125.951 Y122.868 E6.11186
G1 X125.568 Y123.535 E6.13744
G1 X124.988 Y124.315 E6.16977
G1 X124.261 Y125.108 E6.20555
G1 X123.678 Y125.61 E6.23114
G1 X123.049 Y126.046 E6.2566
G1 X122.107 Y126.582 E6.29265
G1 X121.398 Y126.881 E6.31824
G1 X120.714 Y127.091 E6.34204
G1 X119.669 Y127.316 E6.37759
G1 X118.596 Y127.395 E6.41337
G1 X101.849 Y127.4 E6.97038
G1 X101.007 Y127.372 E6.9984
G1 X100.241 Y127.3 E7.02399
G1 X99.487 Y127.15 E7.04956
G1 X98.659 Y126.887 E7.07846
G1 X97.625 Y126.447 E7.11583
G1 X96.959 Y126.064 E7.14138
G1 X96.185 Y125.488 E7.17347
G1 X95.392 Y124.761 E7.20926
G1 X94.89 Y124.178 E7.23484
G1 X94.458 Y123.555 E7.26006
G1 X93.92 Y122.612 E7.29617
G1 X93.621 Y121.904 E7.32173
G1 X93.405 Y121.201 E7.34619
G1 X93.182 Y120.159 E7.38163
G1 X93.105 Y119.097 E7.41705
G1 X93.1 Y101.369 E8.00668
G1 X93.128 Y100.518 E8.035
G1 X93.198 Y99.752 E8.06059
G1 X93.348 Y98.998 E8.08616
G1 X93.61 Y98.167 E8.11514
G1 X94.049 Y97.132 E8.15253
G1 X94.432 Y96.465 E8.17811
G1 X95.012 Y95.685 E8.21044
G1 X95.739 Y94.892 E8.24622
G0 F3600 X96.03 Y95.167
G1 F1800 X96.599 Y94.682 E8.27109
G1 X97.162 Y94.294 E8.29383
G1 X98.086 Y93.769 E8.32918
G1 X98.777 Y93.481 E8.35408
G1 X99.385 Y93.296 E8.37521
G1 X100.409 Y93.076 E8.41005
G1 X101.404 Y93.005 E8.44323
G1 X118.151 Y93 E9.00024
G1 X118.977 Y93.028 E9.02772
G1 X119.721 Y93.098 E9.05258
G1 X120.454 Y93.248 E9.07746
G1 X121.198 Y93.487 E9.10346
G1 X122.212 Y93.918 E9.1401
G1 X122.858 Y94.295 E9.16498
G1 X123.556 Y94.817 E9.19397
G1 X124.333 Y95.53 E9.22904
G1 X124.818 Y96.099 E9.25391
G1 X125.202 Y96.656 E9.27641
G1 X125.729 Y97.581 E9.31182
G1 X126.017 Y98.271 E9.33669
G1 X126.207 Y98.897 E9.35845
G1 X126.425 Y99.919 E9.3932
G1 X126.495 Y100.903 E9.42601
G1 X126.5 Y118.631 E10.01565
G1 X126.473 Y119.466 E10.04344
G1 X126.403 Y120.211 E10.06832
G1 X126.254 Y120.944 E10.0932
G1 X126.016 Y121.69 E10.11925
G1 X125.585 Y122.705 E10.15592
G1 X125.209 Y123.352 E10.18081
G1 X124.683 Y124.056 E10.21004
G1 X123.97 Y124.833 E10.24512
G1 X123.401 Y125.318 E10.26998
G1 X122.838 Y125.706 E10.29273
G1 X121.914 Y126.231 E10.32807
G1 X121.223 Y126.519 E10.35297
G1 X120.615 Y126.704 E10.37411
G1 X119.591 Y126.924 E10.40894
G1 X118.596 Y126.995 E10.44212
G1 X101.849 Y127 E10.99913
G1 X101.023 Y126.972 E11.02662
G1 X100.279 Y126.902 E11.05147
G1 X99.546 Y126.752 E11.07636
G1 X98.802 Y126.513 E11.10235
G1 X97.788 Y126.082 E11.139
G1 X97.142 Y125.705 E11.16387
G1 X96.444 Y125.183 E11.19286
G1 X95.667 Y124.47 E11.22794
G1 X95.182 Y123.901 E11.2528
G1 X94.798 Y123.344 E11.27531
G1 X94.271 Y122.419 E11.31071
G1 X93.983 Y121.729 E11.33558
G1 X93.793 Y121.103 E11.35734
G1 X93.575 Y120.081 E11.3921
G1 X93.505 Y119.097 E11.42491
G1 X93.5 Y101.369 E12.01454
G1 X93.527 Y100.534 E12.04233
G1 X93.597 Y99.789 E12.06722
G1 X93.746 Y99.056 E12.0921
G1 X93.984 Y98.31 E12.11814
G1 X94.415 Y97.295 E12.15482
G1 X94.791 Y96.648 E12.17971
G1 X95.317 Y95.944 E12.20894
G1 X96.03 Y95.167 E12.24401
G0 F3600 X96.321 Y95.443
G1 F1800 X96.876 Y94.974 E12.26818
G1 X97.373 Y94.634 E12.28821
G1 X98.278 Y94.12 E12.32282
G1 X98.95 Y93.844 E12.34699
G1 X99.484 Y93.684 E12.36553
G1 X100.487 Y93.469 E12.39964
G1 X101.404 Y93.405 E12.43022
G1 X118.151 Y93.4 E12.98723
G1 X118.96 Y93.428 E13.01415
G1 X119.683 Y93.497 E13.03831
G1 X120.394 Y93.646 E13.06247
G1 X121.054 Y93.86 E13.08554
G1 X122.048 Y94.284 E13.12149
G1 X122.674 Y94.652 E13.14564
G1 X123.297 Y95.121 E13.17158
G1 X124.057 Y95.821 E13.20594
G1 X124.526 Y96.376 E13.23011
G1 X124.862 Y96.867 E13.2499
G1 X125.378 Y97.773 E13.28458
G1 X125.654 Y98.445 E13.30874
G1 X125.82 Y98.995 E13.32785
G1 X126.032 Y99.996 E13.36188
G1 X126.095 Y100.903 E13.39212
G1 X126.1 Y118.631 E13.98175
G1 X126.073 Y119.45 E14.00901
G1 X126.004 Y120.173 E14.03316
G1 X125.857 Y120.884 E14.05731
G1 X125.642 Y121.547 E14.08049
G1 X125.219 Y122.542 E14.11645
G1 X124.851 Y123.169 E14.14064
G1 X124.379 Y123.797 E14.16676
G1 X123.679 Y124.557 E14.20113
G1 X123.124 Y125.026 E14.2253
G1 X122.627 Y125.366 E14.24533
G1 X121.722 Y125.88 E14.27994
G1 X121.05 Y126.156 E14.30411
G1 X120.516 Y126.316 E14.32265
G1 X119.513 Y126.531 E14.35676
G1 X118.596 Y126.595 E14.38734
G1 X101.849 Y126.6 E14.94435
G1 X101.04 Y126.572 E14.97127
G1 X100.317 Y126.503 E14.99543
G1 X99.606 Y126.354 E15.01959
G1 X98.946 Y126.14 E15.04266
G1 X97.952 Y125.716 E15.07861
G1 X97.326 Y125.348 E15.10276
G1 X96.703 Y124.879 E15.12869
G1 X95.943 Y124.179 E15.16306
G1 X95.474 Y123.624 E15.18723
G1 X95.138 Y123.133 E15.20702
G1 X94.622 Y122.227 E15.2417
G1 X94.346 Y121.555 E15.26586
G1 X94.18 Y121.005 E15.28497
G1 X93.968 Y120.004 E15.319
G1 X93.905 Y119.097 E15.34924
G1 X93.9 Y101.369 E15.93887
G1 X93.927 Y100.55 E15.96613
G1 X93.996 Y99.827 E15.99028
G1 X94.143 Y99.116 E16.01443
G1 X94.358 Y98.453 E16.03761
G1 X94.781 Y97.458 E16.07357
G1 X95.149 Y96.831 E16.09776
G1 X95.621 Y96.203 E16.12388
G1 X96.321 Y95.443 E16.15825
G0 F3600 X96.611 Y95.719
G1 F1800 X97.151 Y95.268 E16.18165
G1 X97.583 Y94.974 E16.19903
G1 X98.47 Y94.472 E16.23293
G1 X99.122 Y94.208 E16.25633
G1 X99.873 Y93.997 E16.28227
G1 X100.564 Y93.862 E16.30569
G1 X101.404 Y93.805 E16.33369
G1 X118.151 Y93.8 E16.8907
G1 X118.944 Y93.827 E16.91709
G1 X119.644 Y93.896 E16.94048
G1 X120.333 Y94.044 E16.96392
G1 X120.911 Y94.233 E16.98415
G1 X121.884 Y94.65 E17.01936
G1 X122.489 Y95.01 E17.04277
G1 X123.038 Y95.426 E17.06568
G1 X123.781 Y96.111 E17.0993
G1 X124.232 Y96.651 E17.1227
G1 X124.522 Y97.078 E17.13986
G1 X125.026 Y97.965 E17.1738
G1 X125.291 Y98.617 E17.1972
G1 X125.505 Y99.382 E17.22362
G1 X125.639 Y100.073 E17.24704
G1 X125.695 Y100.903 E17.2747
G1 X125.7 Y118.631 E17.86434
G1 X125.673 Y119.434 E17.89106
G1 X125.605 Y120.135 E17.91449
G1 X125.459 Y120.823 E17.93788
G1 X125.269 Y121.404 E17.95821
G1 X124.853 Y122.378 E17.99344
G1 X124.494 Y122.984 E18.01686
G1 X124.074 Y123.538 E18.03999
G1 X123.389 Y124.281 E18.0736
G1 X122.849 Y124.732 E18.097
G1 X122.417 Y125.026 E18.11438
G1 X121.53 Y125.528 E18.14828
G1 X120.878 Y125.792 E18.17167
G1 X120.127 Y126.003 E18.19762
G1 X119.436 Y126.138 E18.22104
G1 X118.596 Y126.195 E18.24904
G1 X101.849 Y126.2 E18.80605
G1 X101.056 Y126.173 E18.83244
G1 X100.356 Y126.104 E18.85583
G1 X99.667 Y125.956 E18.87927
G1 X99.089 Y125.767 E18.8995
G1 X98.116 Y125.35 E18.93471
G1 X97.511 Y124.99 E18.95812
G1 X96.962 Y124.574 E18.98103
G1 X96.219 Y123.889 E19.01464
G1 X95.768 Y123.349 E19.03805
G1 X95.478 Y122.922 E19.05521
G1 X94.974 Y122.035 E19.08914
G1 X94.709 Y121.383 E19.11255
G1 X94.495 Y120.618 E19.13897
G1 X94.361 Y119.927 E19.16238
G1 X94.305 Y119.097 E19.19005
G1 X94.3 Y101.369 E19.77969
G1 X94.327 Y100.566 E19.80641
G1 X94.395 Y99.865 E19.82984
G1 X94.541 Y99.177 E19.85323
G1 X94.731 Y98.596 E19.87356
G1 X95.147 Y97.622 E19.90879
G1 X95.506 Y97.016 E19.93221
G1 X95.926 Y96.462 E19.95534
G1 X96.611 Y95.719 E19.98895
G0 F3600 X96.9 Y95.996
G1 F1800 X97.426 Y95.562 E20.01163
G1 X98.062 Y95.148 E20.03687
G1 X98.661 Y94.824 E20.05952
G1 X99.293 Y94.573 E20.08214
G1 X99.972 Y94.385 E20.10557
G1 X100.64 Y94.256 E20.1282
G1 X101.404 Y94.205 E20.15367
G1 X118.151 Y94.2 E20.71067
G1 X118.927 Y94.227 E20.7365
G1 X119.605 Y94.295 E20.75916
G1 X120.27 Y94.441 E20.78181
G1 X120.768 Y94.607 E20.79927
G1 X121.719 Y95.015 E20.83369
G1 X122.302 Y95.366 E20.85632
G1 X122.778 Y95.731 E20.87627
G1 X123.504 Y96.4 E20.90911
G1 X123.938 Y96.926 E20.93179
G1 X124.35 Y97.558 E20.95688
G1 X124.674 Y98.156 E20.9795
G1 X124.926 Y98.789 E21.00216
G1 X125.117 Y99.48 E21.02601
G1 X125.245 Y100.149 E21.04866
G1 X125.295 Y100.903 E21.07379
G1 X125.3 Y118.631 E21.66343
G1 X125.273 Y119.418 E21.68962
G1 X125.207 Y120.096 E21.71228
G1 X125.061 Y120.761 E21.73492
G1 X124.895 Y121.261 E21.75245
G1 X124.488 Y122.214 E21.78691
G1 X124.137 Y122.797 E21.80955
G1 X123.769 Y123.278 E21.82969
G1 X123.1 Y124.004 E21.86252
G1 X122.574 Y124.438 E21.88521
G1 X121.938 Y124.852 E21.91045
G1 X121.339 Y125.176 E21.9331
G1 X120.707 Y125.427 E21.95571
G1 X120.028 Y125.615 E21.97915
G1 X119.36 Y125.744 E22.00178
G1 X118.596 Y125.795 E22.02724
G1 X101.849 Y125.8 E22.58425
G1 X101.073 Y125.773 E22.61008
G1 X100.395 Y125.705 E22.63274
G1 X99.73 Y125.559 E22.65538
G1 X99.232 Y125.393 E22.67284
G1 X98.281 Y124.985 E22.70726
G1 X97.698 Y124.634 E22.7299
G1 X97.222 Y124.269 E22.74985
G1 X96.496 Y123.6 E22.78268
G1 X96.062 Y123.074 E22.80536
G1 X95.65 Y122.442 E22.83046
G1 X95.326 Y121.844 E22.85308
G1 X95.074 Y121.211 E22.87574
G1 X94.883 Y120.52 E22.89958
G1 X94.755 Y119.851 E22.92224
G1 X94.705 Y119.097 E22.94737
G1 X94.7 Y101.369 E23.53701
G1 X94.727 Y100.582 E23.5632
G1 X94.793 Y99.904 E23.58585
G1 X94.939 Y99.239 E23.6085
G1 X95.105 Y98.739 E23.62602
G1 X95.512 Y97.786 E23.66049
G1 X95.863 Y97.203 E23.68312
G1 X96.231 Y96.722 E23.70327
G1 X96.9 Y95.996 E23.7361
G0 F3600 X97.19 Y96.273
G1 F1800 X97.699 Y95.858 E23.75794
G1 X98.273 Y95.488 E23.78066
G1 X98.851 Y95.177 E23.80249
G1 X99.463 Y94.938 E23.82434
G1 X100.071 Y94.773 E23.84529
G1 X100.716 Y94.649 E23.86714
G1 X101.404 Y94.605 E23.89007
G1 X118.151 Y94.6 E24.44708
G1 X118.911 Y94.627 E24.47237
G1 X119.565 Y94.693 E24.49423
G1 X120.205 Y94.839 E24.51607
G1 X120.955 Y95.107 E24.54256
G1 X121.553 Y95.38 E24.56442
G1 X122.114 Y95.722 E24.58627
G1 X122.519 Y96.035 E24.6033
G1 X123.227 Y96.69 E24.63538
G1 X123.642 Y97.199 E24.65722
G1 X124.01 Y97.769 E24.67979
G1 X124.322 Y98.347 E24.70163
G1 X124.561 Y98.959 E24.72349
G1 X124.729 Y99.578 E24.74482
G1 X124.852 Y100.224 E24.76669
G1 X124.895 Y100.903 E24.78932
G1 X124.9 Y118.631 E25.37896
G1 X124.874 Y119.403 E25.40465
G1 X124.808 Y120.056 E25.42648
G1 X124.663 Y120.697 E25.44833
G1 X124.395 Y121.45 E25.47492
G1 X124.123 Y122.049 E25.4968
G1 X123.781 Y122.609 E25.51862
G1 X123.465 Y123.019 E25.53584
G1 X122.81 Y123.727 E25.56792
G1 X122.301 Y124.142 E25.58976
G1 X121.727 Y124.512 E25.61248
G1 X121.149 Y124.823 E25.63431
G1 X120.537 Y125.062 E25.65616
G1 X119.929 Y125.227 E25.67711
G1 X119.284 Y125.351 E25.69896
G1 X118.596 Y125.395 E25.72189
G1 X101.849 Y125.4 E26.2789
G1 X101.089 Y125.373 E26.30419
G1 X100.435 Y125.307 E26.32605
G1 X99.795 Y125.161 E26.34789
G1 X99.045 Y124.893 E26.37438
G1 X98.447 Y124.62 E26.39624
G1 X97.886 Y124.278 E26.41809
G1 X97.481 Y123.965 E26.43512
G1 X96.773 Y123.31 E26.4672
G1 X96.358 Y122.801 E26.48904
G1 X95.99 Y122.231 E26.51161
G1 X95.678 Y121.653 E26.53345
G1 X95.439 Y121.041 E26.55531
G1 X95.271 Y120.422 E26.57664
G1 X95.148 Y119.776 E26.59851
G1 X95.105 Y119.097 E26.62114
G1 X95.1 Y101.369 E27.21077
G1 X95.126 Y100.597 E27.23647
G1 X95.192 Y99.944 E27.2583
G1 X95.337 Y99.303 E27.28015
G1 X95.605 Y98.55 E27.30674
G1 X95.877 Y97.951 E27.32862
G1 X96.219 Y97.391 E27.35044
G1 X96.535 Y96.981 E27.36766
G1 X97.19 Y96.273 E27.39974
G0 F3600 X97.478 Y96.551
G1 F1800 X98.215 Y95.994 E27.43047
G1 X99.041 Y95.53 E27.46198
G1 X99.88 Y95.234 E27.49157
G1 X100.791 Y95.043 E27.52253
G1 X101.405 Y95.005 E27.54299
G1 X118.152 Y95 E28.09999
G1 X118.895 Y95.026 E28.12472
G1 X119.523 Y95.092 E28.14572
G1 X120.139 Y95.236 E28.16677
G1 X120.812 Y95.481 E28.19059
G1 X121.387 Y95.744 E28.21162
G1 X121.924 Y96.078 E28.23265
G1 X122.494 Y96.539 E28.25703
G1 X122.949 Y96.978 E28.27806
G1 X123.503 Y97.711 E28.30862
G1 X123.969 Y98.537 E28.34016
G1 X124.269 Y99.388 E28.37018
G1 X124.458 Y100.298 E28.40109
G1 X124.495 Y100.904 E28.42128
G1 X124.5 Y118.632 E29.01092
G1 X124.474 Y119.387 E29.03604
G1 X124.409 Y120.015 E29.05704
G1 X124.266 Y120.631 E29.07808
G1 X124.021 Y121.307 E29.10199
G1 X123.758 Y121.882 E29.12302
G1 X123.425 Y122.42 E29.14407
G1 X122.961 Y122.994 E29.16861
G1 X122.522 Y123.449 E29.18964
G1 X121.785 Y124.006 E29.22037
G1 X120.959 Y124.47 E29.25188
G1 X120.12 Y124.766 E29.28147
G1 X119.209 Y124.957 E29.31243
G1 X118.595 Y124.995 E29.33289
G1 X101.848 Y125 E29.8899
G1 X101.105 Y124.974 E29.91463
G1 X100.477 Y124.908 E29.93563
G1 X99.861 Y124.764 E29.95667
G1 X99.188 Y124.519 E29.98049
G1 X98.613 Y124.256 E30.00152
