;FLAVOR:Marlin
;TIME:1095
;Filament used: 0.798462m
;Layer height: 0.15
;MINX:92.7
;MINY:89.7
;MINZ:0.2
;MAXX:127.3
;MAXY:130.3
;MAXZ:21.95
;Generated with Cura_SteamEngine 4.6.2
M140 S60
M105
M190 S60
M104 S200
M105
M109 S200
M82 ;absolute extrusion mode
; -- START GCODE --
G21                     ;set units to millimetres
G90                     ;set to absolute positioning
M106 S0                 ;set fan speed to zero (turned off)
G28                     ;home all axis
M420 S1                 ;turn on mesh bed levelling if enabled in firmware
G92 E0                  ;zero the extruded length
G1 Z1 F1000             ;move up slightly
G1 X60.0 Z0 E9.0 F1000.0;intro line
G1 X100.0 E21.5 F1000.0 ;continue line
G92 E0                  ;zero the extruded length again
; -- end of START GCODE --
G92 E0
G92 E0
G1 F3000 E-5
;LAYER_COUNT:146
;LAYER:0
M107
G0 F3600 X95.357 Y92.206 Z0.2
;TYPE:SKIRT
G1 F3000 E0
G1 F1800 X95.944 Y91.678 E0.02626
G1 X96.582 Y91.213 E0.05252
G1 X97.032 Y90.939 E0.07004
G1 X98.05 Y90.412 E0.10817
G1 X98.789 Y90.134 E0.13443
G1 X99.909 Y89.864 E0.17275
G1 X101.073 Y89.714 E0.21178
G1 X103.486 Y89.7 E0.29204
G1 X104.275 Y89.74 E0.31832
G1 X104.993 Y89.847 E0.34246
G1 X106.15 Y90.116 E0.38197
G1 X106.893 Y90.384 E0.40824
G1 X107.605 Y90.725 E0.4345
G1 X108.072 Y91.001 E0.45254
G1 X109.016 Y91.651 E0.49066
G1 X109.61 Y92.171 E0.51692
G1 X109.998 Y92.588 E0.53586
G1 X110.749 Y91.852 E0.57084
G1 X111.379 Y91.364 E0.59734
G1 X112.035 Y90.924 E0.62361
G1 X112.731 Y90.551 E0.64988
G1 X113.462 Y90.251 E0.67616
G1 X114.181 Y90.027 E0.70121
G1 X114.949 Y89.842 E0.72748
G1 X115.731 Y89.735 E0.75373
G1 X116.368 Y89.707 E0.77494
G1 X118.46 Y89.7 E0.84452
G1 X119.249 Y89.737 E0.87079
G1 X119.993 Y89.847 E0.8958
G1 X121.15 Y90.116 E0.93531
G1 X121.893 Y90.384 E0.96158
G1 X122.605 Y90.725 E0.98784
G1 X123.072 Y91.001 E1.00588
G1 X124.016 Y91.651 E1.044
G1 X124.61 Y92.171 E1.07026
G1 X125.148 Y92.749 E1.09652
G1 X125.636 Y93.379 E1.12303
G1 X126.076 Y94.035 E1.1493
G1 X126.449 Y94.731 E1.17557
G1 X126.749 Y95.462 E1.20185
G1 X126.974 Y96.188 E1.22713
G1 X127.159 Y96.956 E1.2534
G1 X127.265 Y97.738 E1.27965
G1 X127.293 Y98.393 E1.30145
G1 X127.3 Y121.036 E2.05456
G1 X127.292 Y121.701 E2.07668
G1 X127.243 Y122.489 E2.10294
G1 X127.114 Y123.268 E2.1292
G1 X126.92 Y123.989 E2.15404
G1 X126.518 Y125.108 E2.19358
G1 X126.166 Y125.815 E2.21985
G1 X125.744 Y126.482 E2.2461
G1 X125.402 Y126.931 E2.26488
G1 X124.643 Y127.794 E2.3031
G1 X124.056 Y128.322 E2.32936
G1 X123.418 Y128.787 E2.35562
G1 X122.98 Y129.054 E2.37268
G1 X121.965 Y129.581 E2.41072
G1 X121.227 Y129.861 E2.43697
G1 X120.224 Y130.112 E2.47136
G1 X119.093 Y130.276 E2.50937
G1 X118.487 Y130.3 E2.52954
G1 X101.69 Y130.3 E3.08821
G1 X101.019 Y130.271 E3.11055
G1 X99.785 Y130.125 E3.15188
G1 X99.018 Y129.938 E3.17814
G1 X98.273 Y129.676 E3.20441
G1 X97.54 Y129.338 E3.23125
G1 X96.847 Y128.961 E3.25749
G1 X96.195 Y128.516 E3.28375
G1 X95.591 Y128.006 E3.31004
G1 X95.023 Y127.43 E3.33695
G1 X94.508 Y126.832 E3.36319
G1 X94.056 Y126.184 E3.38947
G1 X93.509 Y125.143 E3.42858
G1 X93.092 Y124.078 E3.46663
G1 X92.891 Y123.314 E3.4929
G1 X92.78 Y122.63 E3.51595
G1 X92.7 Y121.491 E3.55393
G1 X92.7 Y98.961 E4.30328
G1 X92.708 Y98.299 E4.3253
G1 X92.757 Y97.51 E4.35159
G1 X92.886 Y96.731 E4.37785
G1 X93.08 Y96.011 E4.40265
G1 X93.482 Y94.892 E4.4422
G1 X93.834 Y94.185 E4.46847
G1 X94.256 Y93.518 E4.49472
G1 X94.598 Y93.069 E4.51349
G1 X95.357 Y92.206 E4.55172
G0 F3600 X95.653 Y92.476
G1 F1800 X96.227 Y91.964 E4.5773
G1 X96.852 Y91.515 E4.6029
G1 X97.539 Y91.113 E4.62937
G1 X98.228 Y90.771 E4.65495
G1 X98.949 Y90.503 E4.68054
G1 X99.973 Y90.259 E4.71555
G1 X101.117 Y90.113 E4.75391
G1 X103.486 Y90.1 E4.8327
G1 X104.254 Y90.14 E4.85828
G1 X104.916 Y90.239 E4.88054
G1 X106.053 Y90.504 E4.91937
G1 X106.775 Y90.768 E4.94494
G1 X107.466 Y91.106 E4.97053
G1 X108.158 Y91.53 E4.99752
G1 X108.784 Y91.977 E5.0231
G1 X109.36 Y92.486 E5.04867
G1 X109.988 Y93.204 E5.0804
G1 X110.486 Y92.64 E5.10542
G1 X111.332 Y91.9 E5.14281
G1 X112.258 Y91.256 E5.18032
G1 X112.938 Y90.896 E5.20591
G1 X113.957 Y90.511 E5.24214
G1 X115.043 Y90.231 E5.27944
G1 X115.805 Y90.13 E5.30501
G1 X116.369 Y90.107 E5.32378
G1 X118.461 Y90.1 E5.39336
G1 X119.229 Y90.137 E5.41894
G1 X119.916 Y90.239 E5.44204
G1 X121.053 Y90.504 E5.48087
G1 X121.775 Y90.768 E5.50644
G1 X122.466 Y91.106 E5.53202
G1 X123.158 Y91.53 E5.55901
G1 X123.784 Y91.977 E5.5846
G1 X124.36 Y92.486 E5.61016
G1 X125.1 Y93.332 E5.64755
G1 X125.744 Y94.258 E5.68506
G1 X126.104 Y94.938 E5.71065
G1 X126.491 Y95.962 E5.74706
G1 X126.77 Y97.049 E5.78439
G1 X126.87 Y97.812 E5.80998
G1 X126.893 Y98.393 E5.82932
G1 X126.9 Y121.036 E6.58243
G1 X126.892 Y121.696 E6.60439
G1 X126.843 Y122.464 E6.62998
G1 X126.714 Y123.222 E6.65555
G1 X126.539 Y123.867 E6.67778
G1 X126.144 Y124.966 E6.71663
G1 X125.798 Y125.653 E6.74221
G1 X125.382 Y126.3 E6.76779
G1 X124.865 Y126.956 E6.79557
G1 X124.347 Y127.524 E6.82114
G1 X123.773 Y128.036 E6.84672
G1 X123.148 Y128.485 E6.87232
G1 X122.475 Y128.88 E6.89827
G1 X121.786 Y129.223 E6.92387
G1 X121.066 Y129.493 E6.94945
G1 X120.153 Y129.719 E6.98073
G1 X119.042 Y129.879 E7.01807
G1 X118.487 Y129.9 E7.03654
G1 X101.69 Y129.9 E7.59521
G1 X101.054 Y129.873 E7.61638
G1 X99.84 Y129.728 E7.65705
G1 X99.093 Y129.543 E7.68264
G1 X98.036 Y129.133 E7.72035
G1 X97.038 Y128.609 E7.75784
G1 X96.405 Y128.173 E7.78341
G1 X95.56 Y127.413 E7.82121
G1 X94.812 Y126.571 E7.85866
G1 X94.374 Y125.938 E7.88427
G1 X93.876 Y124.985 E7.92003
G1 X93.467 Y123.938 E7.95742
G1 X93.275 Y123.193 E7.98301
G1 X93.177 Y122.584 E8.00352
G1 X93.1 Y121.491 E8.03996
G1 X93.1 Y98.961 E8.78932
G1 X93.108 Y98.303 E8.8112
G1 X93.157 Y97.536 E8.83677
G1 X93.286 Y96.778 E8.86234
G1 X93.461 Y96.133 E8.88457
G1 X93.856 Y95.034 E8.92341
G1 X94.202 Y94.347 E8.94899
G1 X94.618 Y93.7 E8.97458
G1 X95.135 Y93.044 E9.00236
G1 X95.653 Y92.476 E9.02793
G0 F3600 X95.949 Y92.746
G1 F1800 X96.51 Y92.251 E9.05281
G1 X97.424 Y91.636 E9.08945
G1 X98.406 Y91.13 E9.12619
G1 X99.108 Y90.872 E9.15107
G1 X100.038 Y90.654 E9.18284
G1 X101.161 Y90.511 E9.22049
G1 X103.486 Y90.5 E9.29782
G1 X104.233 Y90.54 E9.3227
G1 X104.839 Y90.632 E9.34309
G1 X105.955 Y90.892 E9.3812
G1 X106.656 Y91.152 E9.40607
G1 X107.641 Y91.675 E9.44316
G1 X108.551 Y92.303 E9.47994
G1 X109.109 Y92.801 E9.50481
G1 X109.78 Y93.572 E9.53881
G1 X110.002 Y93.869 E9.55114
G1 X110.303 Y93.449 E9.56833
G1 X110.801 Y92.891 E9.5932
G1 X111.572 Y92.22 E9.6272
G1 X112.481 Y91.589 E9.664
G1 X113.144 Y91.242 E9.68889
G1 X114.07 Y90.895 E9.72178
G1 X115.136 Y90.621 E9.75839
G1 X115.878 Y90.526 E9.78327
G1 X118.463 Y90.5 E9.86925
G1 X119.21 Y90.538 E9.89413
G1 X119.839 Y90.632 E9.91528
G1 X120.955 Y90.892 E9.95339
G1 X121.656 Y91.152 E9.97826
G1 X122.641 Y91.675 E10.01535
G1 X123.551 Y92.303 E10.05213
G1 X124.109 Y92.801 E10.077
G1 X124.78 Y93.572 E10.111
G1 X125.411 Y94.481 E10.1478
G1 X125.758 Y95.144 E10.17269
G1 X126.107 Y96.075 E10.20576
G1 X126.38 Y97.142 E10.24239
G1 X126.474 Y97.884 E10.26727
G1 X126.493 Y98.393 E10.28421
G1 X126.5 Y121.036 E11.03732
G1 X126.492 Y121.691 E11.05911
G1 X126.443 Y122.438 E11.084
G1 X126.315 Y123.175 E11.10888
G1 X126.158 Y123.745 E11.12855
G1 X125.77 Y124.824 E11.16669
G1 X125.43 Y125.49 E11.19156
G1 X125.021 Y126.117 E11.21646
G1 X124.555 Y126.702 E11.24133
G1 X124.051 Y127.254 E11.26619
G1 X123.49 Y127.749 E11.29108
G1 X122.586 Y128.358 E11.32733
G1 X121.608 Y128.864 E11.36395
G1 X120.906 Y129.124 E11.38885
G1 X120.082 Y129.325 E11.41706
G1 X118.992 Y129.482 E11.45369
G1 X118.487 Y129.5 E11.4705
G1 X101.69 Y129.5 E12.02917
G1 X101.088 Y129.474 E12.04921
G1 X99.895 Y129.331 E12.08917
G1 X99.17 Y129.149 E12.11403
G1 X98.21 Y128.772 E12.14834
G1 X97.23 Y128.258 E12.18514
G1 X96.616 Y127.831 E12.21002
G1 X95.849 Y127.137 E12.24442
G1 X95.116 Y126.31 E12.28118
G1 X94.692 Y125.693 E12.30608
G1 X94.243 Y124.826 E12.33855
G1 X93.842 Y123.798 E12.37525
G1 X93.659 Y123.073 E12.40012
G1 X93.575 Y122.537 E12.41817
G1 X93.5 Y121.491 E12.45305
G1 X93.5 Y98.961 E13.2024
G1 X93.508 Y98.308 E13.22412
G1 X93.557 Y97.562 E13.24898
G1 X93.685 Y96.825 E13.27386
G1 X93.842 Y96.255 E13.29353
G1 X94.23 Y95.176 E13.33166
G1 X94.57 Y94.51 E13.35654
G1 X94.979 Y93.883 E13.38143
G1 X95.445 Y93.298 E13.40631
G1 X95.949 Y92.746 E13.43117
G0 F3600 X96.245 Y93.016
G1 F1800 X96.791 Y92.538 E13.45531
G1 X97.62 Y91.985 E13.48845
G1 X98.583 Y91.489 E13.52448
G1 X99.266 Y91.242 E13.54864
G1 X100.102 Y91.049 E13.57717
G1 X101.547 Y90.9 E13.62549
G1 X103.486 Y90.9 E13.68998
G1 X104.211 Y90.94 E13.71413
G1 X104.761 Y91.024 E13.73264
G1 X105.856 Y91.281 E13.77005
G1 X106.536 Y91.536 E13.7942
G1 X107.426 Y92.013 E13.82779
G1 X108.317 Y92.628 E13.86379
G1 X108.857 Y93.114 E13.88796
G1 X109.46 Y93.812 E13.91864
G1 X110.004 Y94.592 E13.95027
G1 X110.628 Y93.683 E13.98694
G1 X111.114 Y93.143 E14.0111
G1 X111.812 Y92.54 E14.04178
G1 X112.703 Y91.922 E14.07784
G1 X113.348 Y91.588 E14.102
G1 X114.184 Y91.278 E14.13166
G1 X115.228 Y91.011 E14.1675
G1 X115.949 Y90.922 E14.19166
G1 X118.464 Y90.9 E14.27532
G1 X119.189 Y90.938 E14.29946
G1 X119.761 Y91.024 E14.3187
G1 X120.856 Y91.281 E14.35611
G1 X121.536 Y91.536 E14.38026
G1 X122.426 Y92.013 E14.41385
G1 X123.317 Y92.628 E14.44986
G1 X123.857 Y93.114 E14.47402
G1 X124.46 Y93.812 E14.5047
G1 X125.078 Y94.703 E14.54077
G1 X125.412 Y95.348 E14.56492
G1 X125.723 Y96.189 E14.59475
G1 X125.99 Y97.235 E14.63065
G1 X126.078 Y97.956 E14.65481
G1 X126.1 Y121.036 E15.42246
G1 X126.092 Y121.686 E15.44408
G1 X126.044 Y122.411 E15.46824
G1 X125.915 Y123.126 E15.49241
G1 X125.777 Y123.623 E15.50956
G1 X125.395 Y124.681 E15.54698
G1 X125.063 Y125.327 E15.57113
G1 X124.474 Y126.17 E15.60534
G1 X123.755 Y126.984 E15.64146
G1 X123.209 Y127.462 E15.6656
G1 X122.389 Y128.009 E15.69838
G1 X121.43 Y128.505 E15.73429
G1 X120.748 Y128.754 E15.75844
G1 X120.011 Y128.931 E15.78365
G1 X118.942 Y129.084 E15.81957
G1 X101.69 Y129.1 E16.39337
G1 X101.123 Y129.076 E16.41225
G1 X99.951 Y128.934 E16.45151
G1 X99.248 Y128.754 E16.47565
G1 X98.383 Y128.411 E16.5066
G1 X97.423 Y127.907 E16.54266
G1 X96.829 Y127.489 E16.56682
G1 X96.139 Y126.861 E16.59785
G1 X95.42 Y126.05 E16.6339
G1 X95.012 Y125.449 E16.65806
G1 X94.61 Y124.667 E16.6873
G1 X94.218 Y123.66 E16.72324
G1 X94.043 Y122.954 E16.74744
G1 X93.945 Y122.26 E16.77075
G1 X93.9 Y121.491 E16.79637
G1 X93.9 Y98.961 E17.54572
G1 X93.908 Y98.313 E17.56727
G1 X93.956 Y97.589 E17.59141
G1 X94.085 Y96.874 E17.61557
G1 X94.223 Y96.377 E17.63273
G1 X94.605 Y95.319 E17.67014
G1 X94.937 Y94.673 E17.6943
G1 X95.526 Y93.83 E17.7285
G1 X96.245 Y93.016 E17.76463
G0 F3600 X96.54 Y93.287
G1 F1800 X97.072 Y92.826 E17.78804
G1 X97.817 Y92.334 E17.81773
G1 X98.76 Y91.849 E17.853
G1 X99.423 Y91.613 E17.87641
G1 X100.167 Y91.443 E17.90179
G1 X101.547 Y91.3 E17.94794
G1 X103.486 Y91.3 E18.01243
G1 X104.189 Y91.34 E18.03585
G1 X104.684 Y91.417 E18.05251
G1 X105.757 Y91.669 E18.08917
G1 X106.414 Y91.92 E18.11256
G1 X107.211 Y92.35 E18.14268
G1 X108.083 Y92.954 E18.17796
G1 X108.604 Y93.427 E18.20137
G1 X109.14 Y94.052 E18.22875
G1 X109.744 Y94.925 E18.26406
G1 X110.003 Y95.432 E18.283
G1 X110.35 Y94.789 E18.3073
G1 X110.954 Y93.917 E18.34258
G1 X111.427 Y93.396 E18.36598
G1 X112.052 Y92.86 E18.39337
G1 X112.925 Y92.256 E18.42868
G1 X113.552 Y91.935 E18.45211
G1 X114.297 Y91.662 E18.4785
G1 X115.32 Y91.401 E18.51361
G1 X116.02 Y91.318 E18.53706
G1 X118.465 Y91.3 E18.61838
G1 X119.168 Y91.338 E18.6418
G1 X119.684 Y91.417 E18.65916
G1 X120.757 Y91.669 E18.69582
G1 X121.414 Y91.92 E18.71921
G1 X122.211 Y92.35 E18.74933
G1 X123.083 Y92.954 E18.78461
G1 X123.604 Y93.427 E18.80801
G1 X124.14 Y94.052 E18.8354
G1 X124.744 Y94.925 E18.87071
G1 X125.065 Y95.552 E18.89414
G1 X125.34 Y96.302 E18.92071
G1 X125.6 Y97.326 E18.95584
G1 X125.682 Y98.025 E18.97925
G1 X125.7 Y121.036 E19.7446
G1 X125.693 Y121.682 E19.76609
G1 X125.644 Y122.384 E19.78949
G1 X125.516 Y123.076 E19.8129
G1 X125.274 Y123.88 E19.84083
G1 X125.021 Y124.537 E19.86424
G1 X124.696 Y125.161 E19.88764
G1 X124.165 Y125.917 E19.91837
G1 X123.46 Y126.713 E19.95374
G1 X122.928 Y127.174 E19.97715
G1 X122.193 Y127.661 E20.00648
G1 X121.253 Y128.146 E20.04166
G1 X120.59 Y128.383 E20.06507
G1 X119.939 Y128.538 E20.08733
G1 X118.893 Y128.687 E20.12247
G1 X101.69 Y128.7 E20.69465
G1 X101.157 Y128.677 E20.71239
G1 X100.008 Y128.538 E20.75089
G1 X99.327 Y128.359 E20.77431
G1 X98.556 Y128.051 E20.80192
G1 X97.616 Y127.556 E20.83725
G1 X97.042 Y127.148 E20.86068
G1 X96.428 Y126.585 E20.88838
G1 X95.725 Y125.79 E20.92368
G1 X95.333 Y125.205 E20.9471
G1 X94.977 Y124.508 E20.97313
G1 X94.594 Y123.521 E21.00835
G1 X94.428 Y122.837 E21.03176
G1 X94.342 Y122.214 E21.05268
G1 X94.3 Y121.491 E21.07676
G1 X94.3 Y98.884 E21.82867
G1 X94.307 Y98.318 E21.8475
G1 X94.356 Y97.616 E21.87091
G1 X94.484 Y96.924 E21.89431
G1 X94.726 Y96.12 E21.92224
G1 X94.979 Y95.463 E21.94566
G1 X95.304 Y94.839 E21.96906
G1 X95.835 Y94.083 E21.99978
G1 X96.54 Y93.287 E22.03515
G0 F3600 X96.834 Y93.559
G1 F1800 X97.352 Y93.116 E22.05782
G1 X98.013 Y92.682 E22.08412
G1 X98.936 Y92.209 E22.11862
G1 X99.578 Y91.984 E22.14124
G1 X100.232 Y91.838 E22.16353
G1 X101.547 Y91.7 E22.20751
G1 X103.486 Y91.7 E22.272
G1 X104.166 Y91.74 E22.29465
G1 X104.998 Y91.886 E22.32275
G1 X105.657 Y92.057 E22.34539
G1 X106.292 Y92.303 E22.36804
G1 X106.996 Y92.687 E22.39471
G1 X107.849 Y93.278 E22.42923
G1 X108.35 Y93.739 E22.45187
G1 X108.82 Y94.292 E22.47601
G1 X109.41 Y95.147 E22.51056
G1 X109.717 Y95.755 E22.53322
G1 X109.956 Y96.415 E22.55656
G1 X110 Y96.563 E22.5617
G1 X110.303 Y95.708 E22.59187
G1 X110.687 Y95.004 E22.61854
G1 X111.278 Y94.151 E22.65306
G1 X111.739 Y93.65 E22.6757
G1 X112.292 Y93.18 E22.69984
G1 X113.147 Y92.59 E22.73439
G1 X113.755 Y92.283 E22.75704
G1 X114.411 Y92.045 E22.78025
G1 X115.412 Y91.791 E22.8146
G1 X116.375 Y91.707 E22.84675
G1 X118.467 Y91.7 E22.91633
G1 X119.146 Y91.738 E22.93895
G1 X119.998 Y91.886 E22.96772
G1 X120.657 Y92.057 E22.99036
G1 X121.292 Y92.303 E23.01301
G1 X121.996 Y92.687 E23.03968
G1 X122.849 Y93.278 E23.0742
G1 X123.35 Y93.739 E23.09684
G1 X123.82 Y94.292 E23.12098
G1 X124.41 Y95.147 E23.15553
G1 X124.717 Y95.755 E23.17818
G1 X124.956 Y96.415 E23.20153
G1 X125.21 Y97.417 E23.23591
G1 X125.293 Y98.393 E23.26849
G1 X125.3 Y121.036 E24.0216
G1 X125.293 Y121.677 E24.04292
G1 X125.244 Y122.356 E24.06556
G1 X125.117 Y123.025 E24.08821
G1 X124.893 Y123.758 E24.1137
G1 X124.648 Y124.393 E24.13634
G1 X124.329 Y124.995 E24.159
G1 X123.856 Y125.663 E24.18623
G1 X123.166 Y126.441 E24.22081
G1 X122.648 Y126.884 E24.24348
G1 X121.996 Y127.313 E24.26944
G1 X121.076 Y127.786 E24.30385
G1 X120.434 Y128.012 E24.32649
G1 X119.868 Y128.144 E24.34582
G1 X118.844 Y128.289 E24.38021
G1 X101.69 Y128.3 E24.95076
G1 X100.739 Y128.24 E24.98245
G1 X100.066 Y128.141 E25.00508
G1 X99.408 Y127.965 E25.02773
G1 X98.729 Y127.69 E25.0521
G1 X97.81 Y127.205 E25.08666
G1 X97.257 Y126.807 E25.10932
G1 X96.718 Y126.309 E25.13373
G1 X96.031 Y125.53 E25.16827
G1 X95.654 Y124.963 E25.19092
G1 X95.345 Y124.349 E25.21378
G1 X94.97 Y123.384 E25.24822
G1 X94.767 Y122.397 E25.28173
G1 X94.7 Y121.491 E25.31195
G1 X94.7 Y98.889 E26.06369
G1 X94.707 Y98.323 E26.08252
G1 X94.756 Y97.644 E26.10516
G1 X94.883 Y96.975 E26.12781
G1 X95.107 Y96.242 E26.1533
G1 X95.352 Y95.607 E26.17594
G1 X95.671 Y95.005 E26.1986
G1 X96.144 Y94.337 E26.22582
G1 X96.834 Y93.559 E26.26041
G0 F3600 X97.128 Y93.831
G1 F1800 X97.63 Y93.407 E26.28227
G1 X98.209 Y93.031 E26.30523
