;FLAVOR:Marlin
;TIME:9609
;Filament used: 9.89993m
;Layer height: 0.15
;MINX:87.2
;MINY:82.2
;MINZ:0.2
;MAXX:132.8
;MAXY:137.8
;MAXZ:95
;Generated with Cura_SteamEngine 4.6.2
M140 S60
M105
M190 S60
M104 S200
M105
M109 S200
M82 ;absolute extrusion mode
; -- START GCODE --
G21                     ;set units to millimetres
G90                     ;set to absolute positioning
M106 S0                 ;set fan speed to zero (turned off)
G28                     ;home all axis
M420 S1                 ;turn on mesh bed levelling if enabled in firmware
G92 E0                  ;zero the extruded length
G1 Z1 F1000             ;move up slightly
G1 X60.0 Z0 E9.0 F1000.0;intro line
G1 X100.0 E21.5 F1000.0 ;continue line
G92 E0                  ;zero the extruded length again
; -- end of START GCODE --
G92 E0
G92 E0
G1 F3000 E-5
;LAYER_COUNT:633
;LAYER:0
M107
G0 F3600 X89.706 Y84.854 Z0.2
;TYPE:SKIRT
G1 F3000 E0
G1 F1800 X90.283 Y84.315 E0.02626
G1 X90.844 Y83.88 E0.04987
G1 X91.499 Y83.44 E0.07612
G1 X92.196 Y83.068 E0.10239
G1 X92.891 Y82.777 E0.12746
G1 X93.639 Y82.524 E0.15372
G1 X94.409 Y82.348 E0.17999
G1 X95.084 Y82.256 E0.20265
G1 X96.015 Y82.2 E0.23367
G1 X123.957 Y82.2 E1.16302
G1 X124.98 Y82.267 E1.19712
G1 X126.082 Y82.453 E1.23429
G1 X126.84 Y82.674 E1.26055
G1 X127.43 Y82.906 E1.28164
G1 X128.364 Y83.362 E1.31621
G1 X129.34 Y84.019 E1.35534
G1 X130.143 Y84.703 E1.39042
G1 X130.682 Y85.28 E1.41669
G1 X131.12 Y85.844 E1.44044
G1 X131.56 Y86.499 E1.46668
G1 X131.932 Y87.196 E1.49296
G1 X132.214 Y87.865 E1.51711
G1 X132.469 Y88.613 E1.54339
G1 X132.648 Y89.382 E1.56965
G1 X132.743 Y90.064 E1.59255
G1 X132.8 Y91.004 E1.62388
G1 X132.8 Y128.943 E2.88573
G1 X132.738 Y129.927 E2.91852
G1 X132.555 Y131.043 E2.95614
G1 X132.338 Y131.802 E2.98239
G1 X132.105 Y132.402 E3.0038
G1 X131.653 Y133.338 E3.03837
G1 X131.231 Y134.006 E3.06465
G1 X130.814 Y134.552 E3.0875
G1 X130.294 Y135.146 E3.11376
G1 X129.717 Y135.685 E3.14002
G1 X129.156 Y136.12 E3.16363
G1 X128.501 Y136.56 E3.18988
G1 X127.804 Y136.932 E3.21616
G1 X127.12 Y137.219 E3.24083
G1 X126.372 Y137.473 E3.2671
G1 X125.603 Y137.65 E3.29335
G1 X124.954 Y137.741 E3.31514
G1 X123.994 Y137.8 E3.34713
G1 X96.047 Y137.8 E4.27666
G1 X95.036 Y137.734 E4.31035
G1 X93.93 Y137.549 E4.34765
G1 X93.172 Y137.33 E4.37389
G1 X92.57 Y137.094 E4.3954
G1 X91.636 Y136.638 E4.42997
G1 X90.66 Y135.981 E4.4691
G1 X89.857 Y135.297 E4.50418
G1 X89.318 Y134.72 E4.53045
G1 X88.88 Y134.156 E4.5542
G1 X88.44 Y133.501 E4.58044
G1 X88.068 Y132.804 E4.60672
G1 X87.786 Y132.135 E4.63087
G1 X87.531 Y131.387 E4.65715
G1 X87.352 Y130.618 E4.68341
G1 X87.257 Y129.936 E4.70631
G1 X87.2 Y128.996 E4.73764
G1 X87.2 Y91.057 E5.99949
G1 X87.262 Y90.075 E6.03222
G1 X87.444 Y88.959 E6.06983
G1 X87.661 Y88.2 E6.09608
G1 X87.9 Y87.585 E6.11803
G1 X88.353 Y86.651 E6.15255
G1 X88.776 Y85.984 E6.17882
G1 X89.186 Y85.448 E6.20127
G1 X89.706 Y84.854 E6.22753
G0 F3600 X90.007 Y85.118
G1 F1800 X90.572 Y84.595 E6.25313
G1 X91.083 Y84.2 E6.27461
G1 X91.722 Y83.772 E6.30019
G1 X92.402 Y83.413 E6.32577
G1 X93.038 Y83.149 E6.34867
G1 X93.767 Y82.904 E6.37425
G1 X94.874 Y82.684 E6.41179
G1 X96.015 Y82.6 E6.44984
G1 X123.957 Y82.6 E7.3792
G1 X124.928 Y82.664 E7.41156
G1 X126.009 Y82.847 E7.44803
G1 X126.746 Y83.065 E7.47359
G1 X127.268 Y83.272 E7.49227
G1 X128.184 Y83.72 E7.52618
G1 X129.093 Y84.333 E7.56265
G1 X129.879 Y85.004 E7.59702
G1 X130.402 Y85.568 E7.62261
G1 X130.8 Y86.083 E7.64425
G1 X131.228 Y86.722 E7.66983
G1 X131.587 Y87.402 E7.69541
G1 X131.843 Y88.014 E7.71747
G1 X132.09 Y88.742 E7.74304
G1 X132.316 Y89.865 E7.78114
G1 X132.4 Y91.004 E7.81913
G1 X132.4 Y128.943 E9.08099
G1 X132.341 Y129.877 E9.11211
G1 X132.161 Y130.972 E9.14902
G1 X131.947 Y131.71 E9.17458
G1 X131.739 Y132.242 E9.19358
G1 X131.295 Y133.159 E9.22746
G1 X130.665 Y134.095 E9.26499
G1 X129.993 Y134.882 E9.29941
G1 X129.428 Y135.405 E9.32502
G1 X128.917 Y135.8 E9.3465
G1 X128.278 Y136.228 E9.37208
G1 X127.598 Y136.587 E9.39765
G1 X126.973 Y136.848 E9.42018
G1 X126.244 Y137.094 E9.44577
G1 X125.155 Y137.313 E9.48272
G1 X123.994 Y137.4 E9.52144
G1 X96.047 Y137.4 E10.45096
G1 X95.088 Y137.338 E10.48292
G1 X94.003 Y137.155 E10.51952
G1 X93.265 Y136.938 E10.54511
G1 X92.732 Y136.728 E10.56416
G1 X91.816 Y136.28 E10.59808
G1 X90.907 Y135.667 E10.63454
G1 X90.121 Y134.996 E10.66891
G1 X89.598 Y134.432 E10.6945
G1 X89.2 Y133.917 E10.71614
G1 X88.772 Y133.278 E10.74172
G1 X88.413 Y132.598 E10.7673
G1 X88.157 Y131.986 E10.78936
G1 X87.91 Y131.258 E10.81493
G1 X87.684 Y130.135 E10.85303
G1 X87.6 Y128.996 E10.89102
G1 X87.6 Y91.057 E12.15288
G1 X87.659 Y90.126 E12.1839
G1 X87.838 Y89.03 E12.22084
G1 X88.052 Y88.291 E12.24643
G1 X88.266 Y87.746 E12.2659
G1 X88.711 Y86.83 E12.29977
G1 X89.335 Y85.905 E12.33689
G1 X90.007 Y85.118 E12.3713
G0 F3600 X90.308 Y85.382
G1 F1800 X91.117 Y84.674 E12.40706
G1 X91.945 Y84.105 E12.44048
G1 X92.942 Y83.617 E12.4774
G1 X93.894 Y83.283 E12.51095
G1 X94.922 Y83.081 E12.5458
G1 X96.015 Y83 E12.58225
G1 X123.957 Y83 E13.5116
G1 X124.875 Y83.06 E13.5422
G1 X125.935 Y83.241 E13.57797
G1 X126.652 Y83.456 E13.60287
G1 X127.336 Y83.739 E13.62749
G1 X128.003 Y84.077 E13.65236
G1 X128.845 Y84.647 E13.68617
G1 X129.615 Y85.305 E13.71986
G1 X130.326 Y86.117 E13.75576
G1 X130.895 Y86.945 E13.78917
G1 X131.374 Y87.919 E13.82528
G1 X131.711 Y88.87 E13.85883
G1 X131.919 Y89.913 E13.89421
G1 X132 Y91.004 E13.93059
G1 X132 Y128.943 E15.19245
G1 X131.944 Y129.826 E15.22188
G1 X131.767 Y130.9 E15.25808
G1 X131.555 Y131.618 E15.28298
G1 X131.272 Y132.311 E15.30788
G1 X130.936 Y132.98 E15.33278
G1 X130.351 Y133.848 E15.36759
G1 X129.692 Y134.618 E15.4013
G1 X128.883 Y135.326 E15.43706
G1 X128.055 Y135.895 E15.47047
G1 X127.067 Y136.38 E15.50708
G1 X126.116 Y136.714 E15.5406
G1 X125.105 Y136.916 E15.57489
G1 X123.994 Y137 E15.61195
G1 X96.047 Y137 E16.54147
G1 X95.14 Y136.941 E16.5717
G1 X94.075 Y136.762 E16.60762
G1 X93.359 Y136.547 E16.63249
G1 X92.893 Y136.362 E16.64916
G1 X91.997 Y135.923 E16.68235
G1 X91.155 Y135.353 E16.71617
G1 X90.385 Y134.695 E16.74986
G1 X89.674 Y133.883 E16.78575
G1 X89.105 Y133.055 E16.81917
G1 X88.626 Y132.081 E16.85527
G1 X88.289 Y131.13 E16.88883
G1 X88.081 Y130.087 E16.9242
G1 X88 Y128.996 E16.96059
G1 X88 Y91.057 E18.22244
G1 X88.056 Y90.176 E18.2518
G1 X88.232 Y89.101 E18.28803
G1 X88.444 Y88.384 E18.3129
G1 X88.632 Y87.906 E18.32999
G1 X89.069 Y87.01 E18.36314
G1 X89.649 Y86.152 E18.39759
G1 X90.308 Y85.382 E18.4313
G0 F3600 X90.609 Y85.647
G1 F1800 X91.356 Y84.995 E18.46428
G1 X92.167 Y84.439 E18.49698
G1 X93.089 Y83.989 E18.5311
G1 X94.021 Y83.663 E18.56394
G1 X94.97 Y83.478 E18.5961
G1 X96.015 Y83.4 E18.63096
G1 X123.957 Y83.4 E19.56031
G1 X124.823 Y83.457 E19.58918
G1 X125.861 Y83.635 E19.6242
G1 X126.556 Y83.847 E19.64837
G1 X127.174 Y84.105 E19.67065
G1 X127.822 Y84.434 E19.69482
G1 X128.597 Y84.961 E19.72599
G1 X129.35 Y85.606 E19.75896
G1 X130.005 Y86.356 E19.79208
G1 X130.561 Y87.167 E19.82479
G1 X131.003 Y88.067 E19.85814
G1 X131.331 Y88.999 E19.891
G1 X131.522 Y89.961 E19.92362
G1 X131.6 Y91.004 E19.95841
G1 X131.6 Y128.943 E21.22026
G1 X131.547 Y129.776 E21.24803
G1 X131.373 Y130.828 E21.28349
G1 X131.164 Y131.524 E21.30766
G1 X130.905 Y132.151 E21.33022
G1 X130.579 Y132.8 E21.35438
G1 X130.037 Y133.6 E21.38652
G1 X129.391 Y134.353 E21.41952
G1 X128.644 Y135.005 E21.4525
G1 X127.833 Y135.561 E21.4852
G1 X126.92 Y136.008 E21.51901
G1 X125.989 Y136.334 E21.55182
G1 X125.056 Y136.519 E21.58346
G1 X123.994 Y136.6 E21.61888
G1 X96.047 Y136.6 E22.5484
G1 X95.192 Y136.544 E22.5769
G1 X94.149 Y136.368 E22.61208
G1 X93.454 Y136.156 E22.63625
G1 X92.826 Y135.895 E22.65887
G1 X92.178 Y135.566 E22.68304
G1 X91.403 Y135.039 E22.71421
G1 X90.65 Y134.394 E22.74719
G1 X89.995 Y133.644 E22.78031
G1 X89.439 Y132.833 E22.81301
G1 X88.997 Y131.933 E22.84636
G1 X88.669 Y131.001 E22.87922
G1 X88.478 Y130.039 E22.91184
G1 X88.4 Y128.996 E22.94663
G1 X88.4 Y91.057 E24.20849
G1 X88.452 Y90.226 E24.23618
G1 X88.626 Y89.173 E24.27168
G1 X88.835 Y88.477 E24.29585
G1 X89.099 Y87.839 E24.31881
G1 X89.427 Y87.191 E24.34297
G1 X89.963 Y86.4 E24.37475
G1 X90.609 Y85.647 E24.40775
G0 F3600 X90.909 Y85.912
G1 F1800 X91.596 Y85.315 E24.43802
G1 X92.389 Y84.772 E24.46998
G1 X93.236 Y84.361 E24.5013
G1 X94.147 Y84.044 E24.53338
G1 X95.017 Y83.875 E24.56286
G1 X96.015 Y83.8 E24.59614
G1 X123.957 Y83.8 E25.5255
G1 X124.77 Y83.854 E25.5526
G1 X125.787 Y84.028 E25.58692
G1 X126.784 Y84.37 E25.62197
G1 X127.64 Y84.791 E25.6537
G1 X128.35 Y85.275 E25.68228
G1 X129.085 Y85.906 E25.7145
G1 X129.685 Y86.596 E25.74491
G1 X130.228 Y87.389 E25.77688
G1 X130.631 Y88.215 E25.80745
G1 X130.952 Y89.126 E25.83957
G1 X131.125 Y90.009 E25.8695
G1 X131.2 Y91.004 E25.90269
G1 X131.2 Y128.943 E27.16454
G1 X131.15 Y129.725 E27.19061
G1 X130.979 Y130.756 E27.22537
G1 X130.773 Y131.429 E27.24877
G1 X130.539 Y131.991 E27.26902
G1 X130.221 Y132.619 E27.29244
G1 X129.723 Y133.352 E27.32191
G1 X129.091 Y134.088 E27.35418
G1 X128.404 Y134.685 E27.38445
G1 X127.611 Y135.228 E27.41641
G1 X126.772 Y135.636 E27.44744
G1 X125.862 Y135.954 E27.4795
G1 X125.007 Y136.122 E27.50849
G1 X123.994 Y136.2 E27.54228
G1 X96.047 Y136.2 E28.4718
G1 X95.243 Y136.148 E28.4986
G1 X94.223 Y135.974 E28.53301
G1 X93.55 Y135.766 E28.55644
G1 X92.987 Y135.529 E28.57676
G1 X92.36 Y135.209 E28.60017
G1 X91.65 Y134.725 E28.62875
G1 X90.915 Y134.094 E28.66097
G1 X90.315 Y133.404 E28.69138
G1 X89.772 Y132.611 E28.72335
G1 X89.369 Y131.785 E28.75392
G1 X89.048 Y130.874 E28.78604
G1 X88.875 Y129.991 E28.81597
G1 X88.8 Y128.996 E28.84916
G1 X88.8 Y91.057 E30.11101
G1 X88.849 Y90.277 E30.13701
G1 X89.02 Y89.246 E30.17177
G1 X89.226 Y88.572 E30.19521
G1 X89.465 Y88 E30.21583
G1 X89.784 Y87.372 E30.23925
G1 X90.277 Y86.648 E30.26839
G1 X90.909 Y85.912 E30.30065
G0 F3600 X91.208 Y86.178
G1 F1800 X91.835 Y85.636 E30.32822
G1 X92.61 Y85.107 E30.35943
G1 X93.383 Y84.733 E30.38799
G1 X94.273 Y84.424 E30.41932
G1 X95.065 Y84.272 E30.44615
G1 X96.015 Y84.2 E30.47783
G1 X123.957 Y84.2 E31.40719
G1 X124.718 Y84.25 E31.43255
G1 X125.711 Y84.422 E31.46607
G1 X126.623 Y84.736 E31.49815
G1 X127.457 Y85.148 E31.52909
G1 X128.102 Y85.589 E31.55508
G1 X128.819 Y86.206 E31.58654
G1 X129.364 Y86.835 E31.61422
G1 X129.893 Y87.61 E31.64543
G1 X130.26 Y88.364 E31.67332
G1 X130.572 Y89.253 E31.70466
G1 X130.728 Y90.058 E31.73193
G1 X130.8 Y91.004 E31.76349
G1 X130.8 Y128.943 E33.02534
G1 X130.754 Y129.675 E33.04974
G1 X130.585 Y130.682 E33.0837
G1 X130.272 Y131.602 E33.11602
G1 X129.864 Y132.438 E33.14696
G1 X129.409 Y133.104 E33.17379
G1 X128.792 Y133.822 E33.20528
G1 X128.165 Y134.364 E33.23284
G1 X127.39 Y134.893 E33.26405
G1 X126.625 Y135.264 E33.29233
G1 X125.736 Y135.574 E33.32364
G1 X124.958 Y135.725 E33.35
G1 X123.994 Y135.8 E33.38216
G1 X96.047 Y135.8 E34.31168
G1 X95.295 Y135.751 E34.33675
G1 X94.298 Y135.58 E34.37039
G1 X93.377 Y135.264 E34.40278
G1 X92.543 Y134.852 E34.43372
G1 X91.898 Y134.411 E34.45971
G1 X91.181 Y133.794 E34.49117
G1 X90.636 Y133.165 E34.51885
G1 X90.107 Y132.39 E34.55006
G1 X89.74 Y131.636 E34.57795
G1 X89.428 Y130.747 E34.60928
G1 X89.272 Y129.942 E34.63656
G1 X89.2 Y128.996 E34.66811
G1 X89.2 Y91.057 E35.92997
G1 X89.246 Y90.327 E35.9543
G1 X89.414 Y89.319 E35.98829
G1 X89.731 Y88.388 E36.021
G1 X90.141 Y87.554 E36.05191
G1 X90.591 Y86.896 E36.07842
G1 X91.208 Y86.178 E36.10991
G0 F3600 X91.507 Y86.445
G1 F1800 X92.075 Y85.956 E36.13483
G1 X92.83 Y85.441 E36.16523
G1 X93.53 Y85.105 E36.19106
G1 X94.397 Y84.805 E36.22157
G1 X95.113 Y84.67 E36.24581
G1 X96.015 Y84.6 E36.2759
G1 X123.957 Y84.6 E37.20525
G1 X124.665 Y84.647 E37.22885
G1 X125.635 Y84.815 E37.26159
G1 X126.461 Y85.102 E37.29068
G1 X127.274 Y85.504 E37.32084
G1 X127.854 Y85.904 E37.34428
G1 X128.553 Y86.505 E37.37494
G1 X129.044 Y87.075 E37.39996
G1 X129.559 Y87.83 E37.43036
G1 X129.888 Y88.512 E37.45554
G1 X130.191 Y89.379 E37.48609
G1 X130.331 Y90.106 E37.51071
G1 X130.4 Y91.004 E37.54067
G1 X130.4 Y128.943 E38.80252
G1 X130.357 Y129.624 E38.82522
G1 X130.191 Y130.608 E38.85841
G1 X129.906 Y131.442 E38.88772
G1 X129.507 Y132.256 E38.91788
G1 X129.095 Y132.856 E38.94208
G1 X128.493 Y133.555 E38.97277
G1 X127.925 Y134.044 E38.99769
G1 X127.17 Y134.559 E39.02809
G1 X126.477 Y134.892 E39.05366
G1 X125.611 Y135.193 E39.08416
G1 X124.909 Y135.328 E39.10793
G1 X123.994 Y135.4 E39.13846
G1 X96.047 Y135.4 E40.06798
G1 X95.347 Y135.354 E40.09131
G1 X94.373 Y135.187 E40.12418
G1 X93.539 Y134.898 E40.15354
G1 X92.726 Y134.496 E40.1837
G1 X92.146 Y134.096 E40.20714
G1 X91.447 Y133.495 E40.2378
G1 X90.956 Y132.925 E40.26282
G1 X90.441 Y132.17 E40.29322
G1 X90.112 Y131.488 E40.3184
G1 X89.809 Y130.621 E40.34895
G1 X89.669 Y129.894 E40.37357
G1 X89.6 Y128.996 E40.40353
G1 X89.6 Y91.057 E41.66539
G1 X89.643 Y90.377 E41.68805
G1 X89.808 Y89.393 E41.72123
G1 X90.098 Y88.549 E41.75092
G1 X90.498 Y87.737 E41.78102
G1 X90.905 Y87.144 E41.80494
G1 X91.507 Y86.445 E41.83563
G0 F3600 X91.806 Y86.712
G1 F1800 X92.314 Y86.276 E41.85789
G1 X93.049 Y85.777 E41.88744
G1 X93.677 Y85.477 E41.91059
G1 X94.521 Y85.186 E41.94028
G1 X95.161 Y85.067 E41.96193
G1 X96.015 Y85 E41.99042
G1 X123.957 Y85 E42.91978
G1 X124.613 Y85.043 E42.94164
G1 X125.558 Y85.209 E42.97356
G1 X126.3 Y85.468 E42.9997
G1 X127.09 Y85.86 E43.02903
G1 X127.607 Y86.218 E43.04994
G1 X128.285 Y86.804 E43.07975
G1 X128.724 Y87.314 E43.10213
G1 X129.223 Y88.049 E43.13168
G1 X129.517 Y88.66 E43.15423
G1 X129.81 Y89.504 E43.18395
G1 X129.934 Y90.154 E43.20595
G1 X130 Y91.004 E43.23431
G1 X130 Y128.943 E44.49617
G1 X129.96 Y129.574 E44.5172
G1 X129.798 Y130.533 E44.54955
G1 X129.539 Y131.282 E44.5759
G1 X129.15 Y132.073 E44.60522
G1 X128.781 Y132.608 E44.62684
G1 X128.194 Y133.288 E44.65672
G1 X127.686 Y133.724 E44.67898
G1 X126.951 Y134.223 E44.70853
G1 X126.33 Y134.521 E44.73144
G1 X125.487 Y134.812 E44.7611
G1 X124.859 Y134.931 E44.78236
G1 X123.994 Y135 E44.81122
G1 X96.047 Y135 E45.74074
G1 X95.399 Y134.958 E45.76234
G1 X94.45 Y134.793 E45.79438
G1 X93.7 Y134.532 E45.82079
G1 X92.91 Y134.14 E45.85012
G1 X92.393 Y133.782 E45.87104
G1 X91.715 Y133.196 E45.90084
G1 X91.276 Y132.686 E45.92323
G1 X90.777 Y131.951 E45.95277
G1 X90.483 Y131.34 E45.97533
G1 X90.19 Y130.496 E46.00504
G1 X90.066 Y129.846 E46.02705
G1 X90 Y128.996 E46.05541
G1 X90 Y91.057 E47.31726
G1 X90.04 Y90.428 E47.33823
G1 X90.202 Y89.468 E47.37061
G1 X90.464 Y88.71 E47.39728
G1 X90.854 Y87.92 E47.42658
G1 X91.219 Y87.392 E47.44793
G1 X91.806 Y86.712 E47.47781
G0 F3600 X92.104 Y86.981
G1 F1800 X92.554 Y86.597 E47.49749
G1 X93.268 Y86.112 E47.5262
G1 X93.824 Y85.849 E47.54665
G1 X94.644 Y85.568 E47.57548
G1 X95.208 Y85.464 E47.59456
G1 X96.015 Y85.4 E47.62148
G1 X123.957 Y85.4 E48.55084
G1 X124.56 Y85.44 E48.57094
G1 X125.48 Y85.602 E48.60201
G1 X126.138 Y85.834 E48.62521
G1 X126.905 Y86.216 E48.65371
G1 X127.359 Y86.532 E48.67211
G1 X128.017 Y87.102 E48.70107
G1 X128.403 Y87.554 E48.72083
G1 X128.888 Y88.268 E48.74954
G1 X129.145 Y88.809 E48.76946
G1 X129.429 Y89.628 E48.7983
G1 X129.536 Y90.202 E48.81772
G1 X129.6 Y91.004 E48.84447
G1 X129.6 Y128.943 E50.10633
G1 X129.563 Y129.524 E50.12569
G1 X129.404 Y130.457 E50.15717
G1 X129.173 Y131.122 E50.18059
G1 X128.794 Y131.889 E50.20904
G1 X128.467 Y132.36 E50.22811
G1 X127.896 Y133.019 E50.25712
G1 X127.446 Y133.403 E50.27679
G1 X126.732 Y133.888 E50.3055
G1 X126.182 Y134.149 E50.32575
G1 X125.363 Y134.431 E50.35456
G1 X124.81 Y134.534 E50.37327
G1 X123.994 Y134.6 E50.4005
G1 X96.047 Y134.6 E51.33002
G1 X95.451 Y134.561 E51.34988
